/* XPM */
static char *earth[] = {
"256 128 255 2",
"a c #005f97",
"b c #005f99",
"c c #055f96",
"d c #055f95",
"e c #065f95",
"f c #035f97",
"g c #015f97",
"h c #015f98",
"i c #005f98",
"j c #015f99",
"k c #026099",
"l c #016099",
"m c #02609a",
"n c #03619a",
"o c #036099",
"p c #005e98",
"q c #005e99",
"r c #005d98",
"s c #005c97",
"t c #005d99",
"u c #005b98",
"v c #005b96",
"w c #005a98",
"x c #005694",
"y c #005995",
"z c #005b99",
"A c #005f9a",
"B c #06639b",
"C c #0a6599",
"D c #116898",
"E c #1d6d9d",
"F c #266f99",
"G c #2b76a1",
"H c #0d6598",
"I c #056199",
"J c #01609a",
"K c #4588b2",
"L c #3c7b99",
"M c #005e97",
"N c #37769a",
"O c #619099",
"P c #8eabb6",
"Q c #b1c8d8",
"R c #c3c9ca",
"S c #aebbbe",
"T c #aaafae",
"U c #75918f",
"V c #5b8894",
"W c #81a09f",
"X c #96b7cd",
"Y c #d1ddee",
"Z c #c9d7e8",
"0 c #d8e1f0",
"1 c #e0e3e9",
"2 c #8ca4a1",
"3 c #809390",
"4 c #04619a",
"5 c #156996",
"6 c #d7dcdf",
"7 c #e2e8f3",
"8 c #e9eef7",
"9 c #e5ebf5",
"! c #e1e8f3",
"@ c #e8eff7",
"# c #edf3fa",
"$ c #e9eff8",
"% c #e4ebf5",
"^ c #dde7f2",
"& c #dbe4f2",
"* c #05629a",
"( c #658990",
") c #e3eaf4",
"- c #e7eef7",
"_ c #e6edf6",
"= c #e5ecf5",
"+ c #e1e9f4",
"[ c #dce5f2",
"] c #096296",
"{ c #0f6594",
"} c #9ea098",
"| c #a7a59d",
"; c #f3f7fc",
": c #005492",
", c #e7edf6",
". c #f2f6fc",
"< c #eaf0f8",
"> c #d9e2f1",
"? c #02619a",
"/ c #025e97",
"~ c #006099",
"` c #e0e7f3",
"aa c #026098",
"ab c #036198",
"ac c #889895",
"ad c #016098",
"ae c #066297",
"af c #56838e",
"ag c #b5b0ab",
"ah c #005c9a",
"ai c #005d9a",
"aj c #497c8d",
"ak c #036097",
"al c #969c93",
"am c #2d7290",
"an c #146591",
"ao c #03629b",
"ap c #c2bcae",
"aq c #056097",
"ar c #9c9d91",
"as c #a6a293",
"at c #0d6395",
"au c #005e9a",
"av c #015e99",
"aw c #919c90",
"ax c #a0a390",
"ay c #1b6992",
"az c #718d8d",
"aA c #096396",
"aB c #8e9888",
"aC c #979983",
"aD c #889484",
"aE c #819781",
"aF c #8f9990",
"aG c #889784",
"aH c #99a088",
"aI c #7e947f",
"aJ c #bfac93",
"aK c #888e76",
"aL c #7e9176",
"aM c #73927a",
"aN c #76927e",
"aO c #6d927a",
"aP c #036098",
"aQ c #648973",
"aR c #6f8d72",
"aS c #76926d",
"aT c #6f9171",
"aU c #5e8484",
"aV c #4e8286",
"aW c #3e7880",
"aX c #005c9c",
"aY c #678f77",
"aZ c #688e72",
"a0 c #327283",
"a1 c #7d8c75",
"a2 c #859c86",
"a3 c #066196",
"a4 c #246c8a",
"a5 c #5c8973",
"a6 c #628d73",
"a7 c #4b7e7d",
"a8 c #588171",
"a9 c #467881",
"a! c #005d9d",
"a@ c #57836c",
"a# c #266f85",
"a$ c #37767d",
"a% c #005f94",
"a^ c #5f8469",
"a& c #4b7c63",
"a* c #005e9b",
"a( c #1e6b89",
"a) c #678c68",
"a- c #005d9b",
"a_ c #0d6491",
"a= c #1c6987",
"a+ c #587d71",
"a[ c #678a66",
"a] c #658966",
"a{ c #648865",
"a} c #889872",
"a| c #2c6e84",
"a; c #909873",
"a: c #668764",
"a, c #5f8664",
"a. c #6f8f6c",
"a< c #015f9a",
"a> c #758f6a",
"a? c #6f8d65",
"a/ c #6f8b6d",
"a~ c #7c936c",
"a` c #81936c",
"ba c #57835d",
"bb c #768d66",
"bc c #6f866d",
"bd c #89946d",
"be c #969872",
"bf c #81976d",
"bg c #5e805d",
"bh c #919c71",
"bi c #60835f",
"bj c #015e9a",
"bk c #9d9873",
"bl c #989c75",
"bm c #a69879",
"bn c #a69c77",
"bo c #9f9c76",
"bp c #87986c",
"bq c #a0987a",
"br c #3c7167",
"bs c #a7a479",
"bt c #b09980",
"bu c #a89c80",
"bv c #9fa07d",
"bw c #9b9379",
"bx c #b8a48c",
"by c #b0ab8e",
"bz c #a7a07b",
"bA c #65845f",
"bB c #5b845d",
"bC c #b09f82",
"bD c #b79c86",
"bE c #a78e75",
"bF c #ae937a",
"bG c #c4a590",
"bH c #c6ab95",
"bI c #a68870",
"bJ c #d3bca4",
"bK c #cebba1",
"bL c #d6ccb4",
"bM c #c9b39c",
"bN c #b0a586",
"bO c #c29f8a",
"bP c #d3c4ab",
"bQ c #cdac96",
"bR c #cfb49d",
"bS c #055f99",
"bT c #557f5a",
"bU c #4a7956",
"bV c #437657",
"bW c #f5f7fc",
"bX c #f7f9fc",
"bY c #ebf1f8",
"bZ c #f4f8fb",
"b0 c #eef2f9",
"b1 c #ecf1f9",
"b2 c #fefeff",
"b3 c #f2f5fb",
"b4 c #eaeff8",
"b5 c #f0f4fa",
"b6 c #fafbfe",
"b7 c #f3f6fb",
"b8 c #f1f6fa",
"b9 c #e4eaf5",
"b! c #e6ecf6",
"b@ c #eef3fa",
"b# c #f2f7fa",
"b$ c #eff4fa",
"b% c #dee5f2",
"b^ c #dce3f1",
"b& c #dfe6f3",
"b* c #e3e9f4",
"b( c #dde4f2",
"b) c #dde4ef",
"b- c #e0e6f3",
"aaabbccccccccccddcccccccccccccccdddddccccccccccccccccccccccccccccccccccccccccccccccddcddccccdddddddcdcccddccceeeeecceeecceeeeceeeeeeeeeeeeedddddddddcccdddceeddddeddeedccccccdcccccccddccccccfghiiiiiiiiiiiiiiiiiggfffgggggggggggffffceeeecccccfffhbbbbbbbbbbbaa",
"aaaibbbbbbbbbbbiiibbbbbbbbbbbbbbiiiiibbbbbbbbbbbbbbbbbbbbbbbbbbbbbbbbbbbbbbbbbbbbbbiiiiiiiiiiiiiiiiiibbbiibbbbbbbbbbbbbbbbbibbbbiiiiiiibbiiiiiiiiiiiiiiiiibbiiiiiiiiiiiibbbbbibbbbbbbiiiiiiibbbbbbbbbbbbbbbbbbbbbbbbbbbbbbbbbbbbbbbbbbbbbbbbbbbbbbbbbbbbbbbbbiaa",
"aaaibbbbbbbbbbbbbbbbbbbbbbbbbbbbbbbbbbbbbbbbbbbbbbbbbbbbbbbbbbbbbbbbbbjjjkkkkkljjjjbbbbbbbbbbbbjkmkkmnnnoooomkjjbbbbbbbbbbbbbbbbbbbbbbbbbbbbbbbbbbbbbbbbbbbbbbbbbbbbbbbbbbbbbbbbbbbbbbbbbbbbbbbbbbbbbbbbbbbbbbbbbbbbbbbbbbbbbbbbbbbbbbbbbbbbbbbbbbbbbbbbbbbbiaaa",
"aaabbbbbbbbbbbbbbbbbbbbbbbbbbbbbbbbbbbbbbbbbbbbbbbbbbbbbbbbbbbjlkokjnbpqrstsuvsrrqqbbkkookokbmbrsutswxxywyywwzrqbjjjmmmjbbbbbbbbbbbbbbbbbbbbbbbbbbbbbbbbbbbbbbbbbbbbbbbbjlbbjjbbbbbbbbbbbbbbbbbbbbbbbbbbbbbbbbbbbbbbbbbbbbbbbbbbbbbbbbbbbbbbbbbbbbbbbbbbbbbbiaaa",
"aaabbbbbbbbbbbbbbbbbbbbbbbbbbbbbbbbbbbbbbbbbbbbbbbbbbbbbbbbjjAApuwwsxvBCDEFFGGEHDCCIpuuwwuysqvJDEGEEGKKKKKKKLFDCqqtsyxyrbbbbbbbbbbbbbbbbbbbbjjmllmlbbbbbbbbbbbbbjJmlblbprsbbprqbbbbbbbbbqbbbbbbbpjnJmmjbbbbbbbbbbbbbbbbbbbbbbbbbbbbbbbbbbbbbbbbbbbbbbbbbbbbbiaaa",
"aaabbbbbbbbbbbbbbbbbbbbbbbbbbbbbbbbbbbbbbbbbbbbbbbbbblklbqjtsvMDNKOPPPQRQRRRRRSTPUVNFNLKVKKKWOOWXYZZ01RSSSTT23OVLHEDGKGDpjbbbbbbbbbbbbbbqmJpbqvvvyvqbbqqbbbbbbbbruvuprpBCEnrHDIbbbbbbbbb4lbbbbbbBtxyyvrboklbbbbbbbbbbbbbbbbbbbbbbbbbbbbbbbbbbbbbbbbbbbbbbbbbiaaa",
"aaibbbbbbbbbbbbbbbbbbbbbbbbbbbbbbbbbbbbbbbbjjjbbbqbbbtusqCz5OPPVOUOPXXSSSR61RTWLLVWWP6111171189!@##$%^&00YZZQP2322PXXPKEpjbbbbbbbbbbbbbmnxuBMHGGGGG*qbCHbbbbbbbbDGKKGEGKXOKKEGErlbbbbjojC4bbbbblEGPXXGCrxwrbbbbbbbbbbbbbbbbbbbbbbbbbbbbbbbbbbbbbbbbbbbbbbbbbbiaa",
"aabbbbbbbbbbbbbbbbbbbbbbbbbbbbbbbbbbbbbbbkbttqbbbCIjkFLFFFDGVPR6RWV(UUS66ZXKKGEGKX011)$@-@-@-_@8-=)++++++[&&&0YQRPKGvxysbbbbbbbbbbbbblrEPXOPQXXPPXKDIkIIbbbbbbbbBHDEDBBBDCEDBnJbpbbbbb]kpibbbbbqfGKXSSQGKLEb4kkokbbbbbbbbbbbbbbbbbljjbbbbbbbbbbbbbbbbbbbbbbbbiaa",
"aabbbbbbbbbbbbbbbbbbbbbbbbbbbbbbbbbbbbbbqsbH5HoFOVku]FGLLCFVN{FOKVWW}|9;QOG:GPXRQ,.#<-+++))))%%%%)))+^[[&>0YYYZZXLFobnmlbbbbbbbbbbbbbjqBFOPS6KEOKtxjkbbbbbbbbbbbprssrqpbbrx:xyx?Bbbbbbbbhhhiblo4lrxyr/DNOWODluuwzbbbbbbbbbbbbbbbbqzrqqpiilkbbbbjbbbbbbbbbbbbbbaa",
"aibbbbbbbbbbbbbbbbbbbbbbbbbbbbbbbbbbbb~pCNOOOOVLE5VEEFGFLOGFONLVNVWPWOXXGxr4p5KXXXXXQZ[+&^`77)))==%+++^[&&0YYZSQPVLBbbbbbbbbbbbbbbbbbbbbuxEKG:rCEB4bbbbbbbbbbbbbbbjljbkr:kGKKKKPKaajbbbjbbkCabaarun4BENNENLac}}WVVOVGabkoadbbjklljbladaa4HFEE5Dab*abiioliklbbbbbbbbbbbbbaa",
"aibbbbbbbbbbbbbbbbbbbbbbbbbbbbbbbbbbbbbkHED5ELOWWVOOLDFFLONEOFV|OVOPPQX5:J4jlqvBBjvvjCKQ++)======)+++^&>0YYYYYYZPUFHbbbbbbbbbbbbbbbbbbbblmsxu*aapsbbbiibibibbbbbbbbbbjjwEPQQPKGGDIiqloladkaepAzqFafOW2|||||2222||ag|2VtahaiqbJpvrrpj4*4HGWUVajajHGLNC**oadadadbbbbbbbbbbbbaa",
"rpbbbbbbbbbbbjkojkkkjljjbbbbbbbbbbbbjkzL}}2WULDDHIr5NFrHLVLDOWOFDVOLLOKKKDyrqm4qpblJbpy5X-_%)==%)+```[>00YYZQXP2WNHobbbbbbbbbbbbbbbbbbbbbblnm4jlaaaaadaaakadiiiibbbiiaaibbtpLSQL/xxyyrtDFBJBBJqGVajV3|||||||||W2}}alUOOOVLajLFHCFVNamFan*ao*BnnDLN?JA*HBBBII*4?kllllladadibbbM",
"5Cbbbbbbbbjaaitzztzzztttqbbbkokjlklbbbz5acagagWO}T2WUOOOTNwGOT}NOVFCWagOOTTWWTSKDIvwqbbbbbjabvafSZ`%7)%)+[&&000YYZQSPWUEtqbbbbbbbmbbbbbbbbbbbbbbbbjkbbpsssuurhhakadhiiibiaaomDOapW:yMababaqabhEac}ajFLFafVOac|||}}}}|}}}}}aral}alal}}||||as}alac}|}23ataiD*CBBLacacOLLLEabaizzaiahauI44IIkliiadhkoC",
"LFokblblbqpradDNLVVNN5ED*ohbzwsptzzqACHaiCNFahjOWW2|ag|2|2NHCEHLagWDuLW2W}}|22agTXXONDoojiiigav5VOP0))))`[&0YYYYZZXPPO2Lskbbbbbb*BbbbbbbbbbbbbbbbqauahjbHFLLLLFaiaiahzpaaaaiiiiitrHNO(FC{ruuwN}||VV}3aras}U3|}}}asasarawawalaw}}}||||}}arararararaxas}|alal}Vafal3333}as}}}}asalUajajVVafFAtzwwqabIAttuuF",
"jwzqlkklb]5FUarasasasasas}al}alalacW3VafNayamajLV(az3ajafajVLFFOUac2ac2WUW2VDDVOV2WNEEDO2ONLNV2RSTSWatxpadaaaagOKLZ<7%)+^&YYYZZYZQQXOGCbjjkjbbbbbbbbbbbbbbbbbbbkaAatam(U3aBaCaCaDaEazafajamFaeahzpakaaaa/FayupqaeatayNaf(ajFamUawarVLaFaFalarararalaraFawalal|}}}}||}awawararararaBaBaGaBaBaBaBaGaDaDaDar||asaraBawaxasas}ararawaBaFawawarararaxarazajafVafajVFafacUUOajG",
"}ONHtzzbtDafaFasarararararararalararaCaBaCaCaHaCaCaFaBaIaDaBaBaBaDaDawasaJasaxalalVajVVLVac(ajNNL2OL2|}|LG}agWab4CVVajW||2WKHviiaadrDOU6_%=+^>YYYZZXKKKGDvwsAqauahqbbbbbbbbbbbbbbbbbjkaaamU}araBaKaIaIaLaMaNaIaIaIaGaB3VLaeuajajsamaf(az(azUacUarasaxaxaF(alax3ayac3azaralararalaEacaFacal}}}aralaBaIaEaDaEaGaGaBaBaBaBaBaGaGaEaNaOaIaC}}araBaDaIaDal}}awawaFaDaDaBaEazaNUazaDaDaDaGaCaCaxasasal}||||ag|",
"}|aJacVazLaPaeDamLajUaDaBaDaIaIaIaIaIaNaOaQaQaQaRaIaNaIaBaIaIaIaNaNaNazazazafajazaBawaF3acaraF3araxalalalalacac||||}22WWVHpMEHFacWW2PRSODMaadsFTTR#,=+>YYZQXWHyyyvsoFDvHatFHqbbbbbbbbbbbbbbbaaauhLaw}aFaIaMaSaTaOaMaMaNaNaUaUaVaUazaEUamayaU(aVaEaGaGaIaGaGaGaGaBaGaFawaBaBaBaBUajazaxaraBawaBaGaBaGaNaNaBaBawalalaBaraBaGaDaGaGaGaBawaBaBaBaGaEaIaNaNaIaOaNaB}}araIaIaGaDaG}|alaDawalaBaDaEaIaIaDaBaDaBaBaBaDaBaw}}||}}||||",
"FNajacasUamadH(araFaz3aBaIaNaMaMaMaMaQaQaRaMaIaNaMaDaDaDaDaDaDaDaDaEaIaNaNaUamaWafazaE33acacaFaFalalaFawaFacacaFal}||}2VWVHravFVL2|U}}LNWNfbiijhKTR@=%^YZPGGHvrnoomjHVac2TTapac5tjbbjbbbbbbbbkAaXakaWaHaraIaOaYaZaWana0aOaOaOaOaYaMaVfay{a0aOaOaMaIaIaMaOaYaYaYaOaOaMaEaEaEaNaOaMaIaGaIaEaBaBaGaEaGaEaIaIaIaEaNaIaEaGaGaGaBaBaBaGaGaGaEaIaEaDaGaDaDaIaNaNaOaOaMaMaUaNaB}}arawalaBawar}}aFal}}araDaNaIaIaDaDaGaBaF}}}}aralaBawaw}aFalac",
"MuuaqFH55qIayFamafaDaNaNaRaQaYaEaIa1a2a2aNaRaNaNaNaNaNaNaIaDaBaDaDaNaNaMaNaIaNaUaNaEaG3U33aFalalaFac3333aFal3VFL|OOGuGLEFV}ag2}WHwbbbbjav/OR@+^0ZXHyrpJlbbbbbqadajWPPKFobbbqqbbbbbbbauaha3a4aVaGaBaMaYaTa5aW{a0a5a6a5a6a6aYaYaYaVaVaYaOaYa6aYa6a5aYaYaYa6a6aYaYaOaMaYaOaOaYaYaMaNaIaNaNaIaIaIaEaNaNaNaNaNaNaNaNaEaEaNaIaIaIaIaEaIaNaNaNaNaNaNaNaNaOaYaOaYaOaOaOaYaOaIaNaIaGaBaDaGar}aGaDalal}}aHaDaEaIaDaGar}aw}axawawaFalaDawawarasacE",
"gakaaasaHDkaaajazaDaIaNaIaNaMa1al|aDaCaHaIawawaIaQaRaMaQaMaNaNaEaBaDaDaNaQaOaIaNaYaUajaUaUaUaNac3aFaFazUac3ac33aj5wr]aeFFD5NajFLDFajOVLDavbbbbihj]W6_&YXEjnkjbbbbbbbbadss*yxzbbbqCDqlbqbjauataj3aHaHaraGa6a5aW]aaa7aZa5a8a5a7a8a6a6a7a7aTa6a6a6a6a6a5a5a6a6a6a6a6a6aYa6aQa6aYaYaYaYaOaMaNaNaNaNaNaNaIaNaNaNaMaOaOaOaOaMaIaIaNaNaMaMaMaMaMaMaMaMaOaYaOaOaOaYaOaMaMaMaOaOaOaOaOa6aYa6aOaIaB}}}}alaEaDaDaDaDaBaHaraFaBaraBaVaDaDaCarasasaracVVL",
"aiiaakaPpiabDaUaDaIaNaDaDaIaIaxaga8aNTWawTap6R}a1aRaQaNaIaNaNaNaRaOa8a8aQaYaQa7a4a9aQaQaOaNaNazazU333aF3ayuMaPlqqIqabCLasal}alaj5abCCkjbbbbiajp/VXPRWyJbbbbbbbbbbbbljqmnlbbbbICjqIaAqaaa!a0aH|aHaIaMaMa6a@a#aPCa7a5a8a7a7a7a$aya8a8a$a5a5a6a6a6a6a5a5a5a5a5a5a5a6a6a6aQa6aOaOaOaOaYaOaOaOaOaMaOaOaNaMaMaOaMaYaYaYa6a6a6aZaYaYaMaMaMaMaMaMaOaOaMaOaYaYaYaOaOaYaYaOaOaYaOaOaOaOaOaOaOaEaGaGaBawawaBaGaDaBaCawaB3am]a4aVam(aBaIaIaNaBVayaqswr",
"bbbblabaadabF5amajaDaDaIaIaNazNajOGa%DGLKPSag|acaQaMaNa8a@a^a&a@a5aQaQaQaYaQa^a8a7a7a5a5aUaOazaNaz3aBafwakakakgihbb4zNaF33aFasVnzajafzjbbbbbbjbvy]LDrlbbbbbbbbbbbbbbjbbbbbbbqahahaq]aAqada*a(aIaHaRa8a@a7a@a@a@a4atana0aWa$a4a7a8a7a5a)aZa5a5a6a6a6a6a6a6a5a5a5a5a6a6a6aZa6aZaYaOaOaOaOaYaYaOaYaYaYaOaMaMaMaOaMaMaOaYa6aZaZa6a5a5a5a5a6aZaOaOaYa6aYa5aYaNaNaNaYaYaYaOaYaOaOaYaMaMaOaOaMaIaIaIaIaUaUaUaUaUajaUaIaU{ua-ea93afamanIa_{uraaaoh",
"aibbbbiaiqbqaeayayamaNaUafa=aeyuJrwwx:CK(WTaEaNaEaIaGaIa@a@a@a@a@a^a@a@a+a8a5aQa5a5a7aUaOaYaYaNaNafaqrzrgakaajjqN333aFaF3afafalasajavaajbbbbbbklbvpbbbbbbbbbbbbbbbbbbbbbbbbatayajaW]aubbbaaaWa7a=ata+a7a@a@aya_aia_a(a7a[a8a^a]a^a{a^a)a5a8a)aQa]a^a]a]a^a^a^aQaZa6a6aQaQaZaZa6aZaZaZaZaZaZaZaTaZaZaZaYaOaOaOaZa6a6a6a6a5a5a5a6a5a@a5a6a6aZa6a5aQaOaEa2a2a2aIaIaNaNaNaEaEaIaNaMaMaMaOaNa}aNamkqbika-aqataqb]a4a+aHajakMrpppaalbbbb",
"ibbibiaaaabaaippaqa4ajamaAa0ayrkkbjkkn4pxa=a|Uag|aGaGaEaIaQa@a^a^a@a@a@a@a@a@a@a8a8a@a7a7a8a8a5aQaOaEaUaVajanrzsMak5aXLaDazaBaGaEaNaEaBaraBFwpjbbbbbbbjkjbbbbbbbbbbbbbbbbbbbbbbjhhama;aLa#a!adibba-]a7a|a(a:a,aWa3a_fa@a7a+a{a{a^a,a^a,a{a]a]a[a)a)a^a{a{a^a]a)a)a)aQa)aZaZaZaZa.a.a.a.aSa.aTaTaTaTaTaTaTaZaZaZa6a6a6a6a6aZaYaZaTaZa5a5a5a5a6a5a5aIa2a2aBa2a2aBaHawa2a2a2a2awa2a2a2aEaIaLaLaV{aiigiiiakappea7a1aDaDa+a3aaighbbbbbb",
"bbbibbiaqqaP5amamN{zaaia-bbbbbbbbbjoau{a|a7alaMaRaQa@a^a^a^a]aZa@a@a@a@a@a@a&a&a7a@a@a@a@a@a8a8a5aRaNaEaNaVamam5hayamaUaNazazaIaIaNaOaN3aBazamataiqbbbbbbbbbbbbbbbbbbbbbbbibbbbbbbqa<a4a|a7a>a7hAklada*ana^a0a|a0anha3tana^a[a:a^a^a,a{a{a{a]a[a[a:a:a[a[a?a[a[a]a)a/a/a>a>a)a.aZa/aSa~a>a`a`a`a`a`a`a~a~aSa~aSaTaTaSaTaTaMaMa6aZaTaZaQa6aZa5a5a6a5aSaUaEa2aBaGaIaEaGaIaIaEaEaIaIaMaIaEaGaLaUamtahfpaibibiakaia#a1aIaMaEa(kaqaAjibbbbbbb",
"bbbbqbiakat5at5aAizqkbjjbbbbbbbbbbbjaua(ana7aBaMa&a&a@aQaMaQa&a^a)a>a/a]a,a@a&baa@a@a7a7aWa@a&a+a8a8a5aYaMaZaRaWzamaNaUaUaOaYaYaNaNaNaUaUaNaYaYaUamaqqbbbbbbbbbbbbbbbbbbbbbbbbbbbbiqCa7bba+]a0bba7ooaaJataya8a8a7aWa#aWa^a7a@a{a{a{a{a{a:a{a:a:a[a?a?a?a?a?bbbbbbbba^bca~a`a`a>a[a)a>bdbdbdbda;a;a;a;bea;a;bda`bdbda~a`bfa~aSaTaLaTa6aRaLaMaZaTaTa6aQa.a7a0aIaGaLaLaSaLaSaRaTaTaTaTa6aYaTaZaRaTa5a0ama0anayakabbbigauana1aKaUayakqadIaPiiklbiii",
"ikabaeHaaaP]{aebaiqijjbbbbbbbbbbbbbbbjAana=ea9awaNbga,a@a2awa2a^a?bhbea;bdbbbbbba:bia7a$a4a^a@a@a&a@a&a&a@a5aQa8ayanaYaUaQaQaQaYaYaYaQaQaQaQa@a8aRaMa4bjlbbbbbbbbbbbbbbbbbbbbbbbbbbbhau{a)a?a0{aQa?a?a+atIaWa]a[a[a?a?a[a:a:a{a[a]a{a]a]a]a[a:a:a:a[a?bbbbbbbba~a`a`a`a~a>a`bdbdbda`a?a~bebebebebebkblbebebebebebebebdbdbdbda`a/a)aZaRaZaRaRaRaEaHaGaTaZa6a7aWaQbfaLaSaSaSaSaZa^aQaTaZaZaTaTaTaZaZaTaTaZaZaZa7a7fabbbiabaa^a+a_tiiiibbbI]ijakg",
"iaeHaPojjbqqbjbbbbbbbbbbbbbbbbbbbbbauaAda8axawaEa^a^aN}a2a/bebmbmbmbebebebdbba:a@a+a7a@a@a&a&a&a&a&a@aQaQa7a9aQa5aQa8a5aQa@a&a@a@a@a@a@a8a0aVayahlbbbbbbbbbbbbbbbbbbbbbbbbbbbjauata#a_bja4aQa^a@aWa|a+a[a[a{a{a{a[a{a{a{a{a{a{a]a[a[a:a:a?a:a?bbbba~a`a`a`bdbdbda`bdbebebebebebea;bebkbkbkbkbkbkbkbkbkbkbkbkbkbkbebea`a~aLaRaRaGaLaLaKaKaZaEaHa2aEaMa5aQa~a>a/a/aSa~aSaSaSa/a)a/a/aZaTaTaTaZaZaRaZa6a6a5a#a5{thbiaaia3a|a_aiakbbbbbbbiiihaqaq",
"aiqbbbbbjbbbbbbbbbbbbbbbbbbbbbbbbjbjaqa#a&a5aNbca:a^aZaMbcbdbmbmbmbnbobkbebha`a?a[a^a+a+a+a@a+a&a@a@a@a@a@a^a5a@a8a8a@a@a@a&a0a=a|a0a({{aUamanAbbiiibbbbbbbbbbbbbbbbbbbbbbbbqaXauhan{{aya0a?bba:a{a{a]a[a:a{a:a[a{a,a{a{a:a[a?a?bbbba/a>bpa`bdbhbhbhbea;a;bkbkbkbebkbkbkbkbkbkbmbmbmbnbmbmbkbkbkbkbkbkbmbqbkbhbeblaCaHaHaCaCaCbmaHaHaxaGa}aLa`a~a/aQaRaRa`a;a;a;a`a~a.a.aTaTaTaSaZa^a^aQaZa6aZa5a3a5amahadaibiak{iqgibbbbbbbibbbaf",
"ibbbbbbbbbbbbbbbbbbbbbbbbbbbbbbbbbbbiaua_brbra^a>bbbia^a{a>bmbmbobqbkbkbebea;bda`a:a+a@a@a@a$aya#a@a@a@a@a@a@a@a@a@a@a@a8a7a7a7a_aea-qa7aTaTa5{aujiiiaibbbbbbbbbbbbiiiiibbbbbiaagau{aWa8a[a?a[a{a[a[a,a{a:a]a{a{a[a?a:a:a[a:a,a?bba~bdbpbdbdblbsblblboa;a;a;bobmbnbnbnbmbmbmbmbnbtbububmbmbmbmbmbmbnbnbmbmbnbnbnaKbvbvaxaxasbwbubxbyaHaHaCblbla;a`aLaLa}a;bkbqbmaKbda`aSaTa>aTaTa)aQa6aTaTaZa^a)a0ata0aPhaabbjakaagibbbbbbbbbbbbii",
"bbbbbbbbbbbbbbbbbbbbbbbbbbbbbbbbbbbbbfa!a(bgbgbdbza`bgbAa:bba;bkbqbqbobkbebeblbda?a,a,a@a|a#a#a_a#a@baa,a@a@a&a@babBa@a@a,bia@anjana_5ana4a0a4aihbiaaibbbbbbbbbbbiiaaaibbbbbbbhjaqana7a?a[a[a{a{a,aRaMaEaMa/a,a[a?a~bdbba[a[bibbbdbdaLbha;aIaUaIbobla;bkbobqbnaKaUaIbCbububtbububxbDbtbEbFbFbmbmbwaDbwaKbwbkbqbvbqbmbubuaxarbubDbxasaxaxaHbububqbubqbqbmbmbmbmbma;a`aSa~a`a~aTa]aZaTaSaZa@a{aWaX{a0fgaqaaaaakaabbbbbbbbbbbbbbbbi",
"bbbbbbbbbbbbbbbbbbbbbbbbbbbbbbbbbbbbbhbjanbga:bea;a`a:bAbba`a`bkbeboboboboblblbhbba?a,bgbabibaa#a$a0a(a|a&bgbgbabaa,bBbgbga&a&a+a$a|a_aXqaiaibbbbiiibbbbbbbbbbbbiiiiibbbbbbbbauauauaXja8a?a{a]a,aMaEbbaSaQa9bAa:a:bbbda?a:a[a{a~bda0ataUaLamama;boblbkbobzaDa0]EazbxbxbGarajasbxaJaJbxbDbDbtbFazaCbtbmbuaHaDbmbEbxbHbFbIbFbubububtbDbxaJbDbDbDbDbDbDbtbtbnbnbnbea`a`a;a;a`aTaZaTaZa6a)a{a7aqrananaXpaqataAaabbbbbbbbbbbbbbbbbbbi",
"bbbbbbbbbbbbbbbbbbbbbbbbbbbbbbbbbbbbbha*a=bgbbbkbdbka`a`bka;bcbqa;bkbebdbobebebhbpbba?bAbgbga$a=bAbra_a&a@aWbrbgbabababra#ana$a#anjauhjjjbbbbibbbbbbbbbbbbbbbbbbbbbbbbbbaaata3akaaa3a@a[a{a:a:a1a+a|bAa^ata4a:a?a:a[a{a?bba`bda9spa_a(]aya$a]bfa}a;boaUaX]}bJaJbKbLTObKbKbMbxbDbCbtbtbtbtbtbmbmbubNbuasbNbubCbubEbIbIbEbtbtbDbxbxbDbObObObGbHbGbObDbCbobea;bebea;a~a/a)a.aZaQa[aWavgaha#a5a0anaAaqbbbbbbbbbbbbbbbbbbbbbb",
"bbbbbbbbbbbbbbbbbbbbbbbbbbbbbbbbbbbbbaaa!a|bAbcbwbqbmbnbkbkbeaKbqbubmbkbkbnbnbobhbpbpa~a?bgbAa|a(bAbaa$a7a$a&a&bgbabga&ha-aa3a!a-bjbbbbbbbbbbbbbbbbbbbbbbbbbbbbbbbbbada!a#a,a]bca^a^a?a>bba|aya(aPana|a:a:]ata0a^a[a?a?bbbbaQaqa-qMrahaXaXa_aVa2aIa}aIatzFTbPbLbLbPbKbJbQbGbDbtbtbtbububvbvaFawby|as||asbqbCbtbDbxbDbDbDbDbDbDbDbtbDbQbHbGbRbHbxbCbla;a;bebda~aSaQa)aQa0a$a#phhayaWa6aWanqbibbbbbbbbbbbbbbbbbbbbb",
"bbbbbbbbbbbbbbbbbbbbbbbbbbbbbbbbbbbbbha*a=bAbcbwbtbnbmbC}aLbqbtbka`bobnbobobobla`bpa~a?bia?a^a&bibaa$a&babgbgbgbabra#a3ggbhjbbbbbbbbbbbbbbbbbbbbbbbbbbbbbbbbbbbada!a=a?bbbda`a`bea1a$aqa!a!a3a$a<ana+a:a9]a4bcbca:a^bca^a(a=a0a+a^a9a4a=ana9a;aGaTaCaYHzFObLbPbMbHaJbGbHbxbtbtbubublax|TT|bxbxbxbHbxaJbHbHaJaJbxbxbHbGbGbObGbGbHbxbCbCbCbubzbla`a~a~a/a~a.a)a)a.a4aXa-aiaadaha#a(bjaXaibiibbbbbbbbbbbbbbbbbbbbb",
"bbbbbbbbbbbbbbbbbbbbbbbbbbbbbbbbbbbbbha*a=bba>aKbtbubmbNbMa;bwbqa~aRa;bnboboboblbpbbbbbAbia:bAbgbgbibAbAbgbgbgbia#aiauiibibbbbbbbbbbbbbbbbbbbbbbbkbbjbbbbbbbbbbada!a|bbbba`bIbIaKaybSanaPoana+a3a*a!aybca0ana^bbaW]a|a^a^a`beboblbebdaKaCbNbybuaHbfboamahNbybMbRbRbGbGbGbxbDbCbuaHasby|asbCbDbxbHbRbRbRbMbKbPbKbHaJaJbybxbxbGbObGbQbGbDbtbmbubqa;a>a/bca0a0a8a7a)a5a4ihaaadbakaXa0a5bjjhiibbbbbbbbbbbbbbbbbbbbbi",
"bbbbbbbbbbbbbbbbbbbbbbbbbbbbbbbbbbbbbbjra+bla/bmbtbubmbubqbtbwaLaGbdbnbobobobebpbba[bAbgbgbgbgbgbgbgbgbgbga@a$qghbbbbbbbbbbbbbbbbbbbbbbbbbbbjbaqa3kjbbbbbbbbha-aWbdbdbdbEbFa1kIka*a!A{a*a3ayana0ataXa4a1a+{aybcbdbkbzbxbNblaKaKa}a;aBasaCbvaOza*z|bRbubxbGbGbGbxbxbNbNaxagRT|btbHbJbKbRbMbRbKapapapbLapagagT|byaJbGbObDbDbDbubea}a>bbaQa4aba=fa_a]a]anaiadjadjauava7a7bjhibbbbbbbbbbbbbbbbbbbbbbba",
"bbbbbbbbbbbbbbbbbbbbbbbbbbbbbbbbbbbbbbjqa_aKblaKbFbFbubmbmbtbua}aLbdbmbobobkbebdbbbAbibgbTbTbgbibgbgbgbgbga&a_qjbbbbbbbbbbbbbbbbbbbbbbbbbbbbbbjbaPaPbbbbbbbbha*ana7bcaKa1aUDrea=a=a4a|a0a=oaWa+aqauja<a7a9atataWbca1bcbwa1a^a;bobsboblaCaBbxaCa95a_UbNbCbNbxbxbxbOaJaJbNbu|SSSTagaJbMbMapapSSSapRapag|agT2aHasbDbCbubqa;a~a`bbbba?a5a8a$]aqa(a:a^a3ja-aXaua4a7a?ana!jbbbbbbbbbbbbbbbbbbbiiibia",
"bbbbbbbbbbbbbbbbbbbbbbbbbbbbbbbbbbbbbbblaha|bnbobtbDbtbqbwbDbtbma`bebnbobkbea;bbbAbgbgbgbgbgbgbgbabgbgbgbga&ataujbbbbbbbbbbbbbbbbbbbbbbbbbbbbbbbbbbbbbbbbbbbbka!a4a0a_da0bcbIbFbEbIbIbIaD4AIbjbjIatay{]{an]a9ata$bCaJaJaJbybzbqbybxbDasaCbubxbGbDbDbxbxbxbxbybNas}}|SRRSRSSSSSTTTagagagagagT|aBasbubea`a~a`a>bba?a?a?a0]aktana:a,a3aia(a4a0a[a?a&aeaubbbbbbbbbbbbbbbbbbbbiiiiii",
"bbbbbbbbbbbbbbbbbbbbbbbbbbbbbbbbbbbbbbbbjauaWa1bCbxbDbzbdaKbdbwbmbmbzbobkbea`a?bibibibgbgbibgbgbgbgbgbgbranmbbbbbbbbbbbbbbbbbbbbbbbbbbbbbbbbbbbbbbbbbbbbbbtbSa+bbbwbFbObObObGbMbPbPbJUzwtkjbauzs{{mAa*aPa4auaVbKbPbMaJ|bybNbubNbCbGbGbQbRbHbGbGbHbxbyas}asarbwa`aIalSRSSSSSSSSSSSRRSapapapaxaHa}a`a~aSa>a?a?bba?a)a|aAgpa=a0anata|a@a8a@a#anaejbbbbbbbbbbbbbbbbbbbbbbbiibb",
"bbbbbbbbbbbbbbbbbbbbbbbbbbbbbbbbbbbbbbbbbja-aia7bxbHbObCbebdbqbubqbubmbobda`bbbAbibgbgbgbgbibibgbgbaa|Aa*bbbbbbblbbbbbbbbbbbbbbbbbbbbbbbbbbbbbbbbbaPaPbbjaiama1bdbubQbQbGbGbQbQbJbLbLbPagOajEwtmanajFahwwraiahwebwbQbRbRbRap|aJbxbuaHbDbDbxbHbHbHbxbHbxasasasagbububvbdaSTSTSTSSSSSSRRRRapapapag|aSa?a>a>a.a.a?a?a?a.a[a?am{aqa3iauaWa+a(a_a3a-a-bbbbbbbbbbbbbbbbbbbbbbbbbbbbb",
"bbbbbbbbbbbbbbbbbbbbbbbbbbbbbbbbbbbbbbbbbbaaaua3aCacarbCbnbtbObxbtbCbubebda~a?bibgbgbgbgbgbAbibgbga#a!jhbbbbbbblbbbbbbbbbbbbbbbbbbbbbbbbbbbbbbbbbkjbbkfaKbFbubObGbGbQbQbRbRbKbPbKbMbJbRbRbML5yacbPbK2OLDamajGUbMbMbQbRbJbPapag|bMbxaraJaJbGbGbGbxaJbPbRbMaJasbtbybNbzbhaR2SSSSSSSSRRRRSSST}aIa:a[a:a:a)a)a?a?a?a?a[a^aV5aAaga*a#a#aXauaujhbbbbbbbbbbbbbbbbbbbbbbbbibbbb",
"bbbbbbbbbbbbbbbbbbbbbbbbbbbbbbbbbbbbbbbbbbboaXajaUFbCbebdbqbtbmbmbqbda`a~a?bia@a@a@a7a|a#bra&bganbjaabbbbbbbbbbbbbbbbbbbbbbbbbbbbbbbbbbbbbbbbbbqaubozdaKbtbDbGbQbQbRbKbRbRbKbKbHbKbJbQbRbJbJapPbLbLbLbLbLbLapbMbyapbPbMbQbRbRbJbPbLbLapWacbNasbxbxasbGbDbMbMbGbRaJbxbxbNbNbNbNbpa)a22SSSSSRRRRTSTTTawbga:a)a[a[a[a)a)a]a]a:a:a]aVDMgibakhjjbbbbbbbbbbbbbbbbbbbbbbbbbbaibbbb",
"bbbbbbbbbbbbbbbbbbbbbbbbbbbbbbbbbbbbbbbbbbbkkaiaUaf(bsa~bdbmbmbmbea;a}a`a+a(*Da(5aua!auaAa@a$a!pbbbbbbbbbbbbbbbbbbbbbbbbbbbbbbbbbbbbbbbbbb]at]]E3bDbQbRbRbGbQbKbRbQbQbRbKbKbRbRbRbRbRbRbL6bLbLbLbLbLbLbPapap}arbObGbQbMbQbRbKbKbLVxawbGbxbxbqbDaJbxaJaJbMaJbMbxbyaJaJbNbla`a?a{aN2TSSSRR2aQac2ac2aNa,bia:a[a)a]a[a)a[aQa[a:a?a9o/ibakakAbbbbbbbbbbbbbbbbbbbbbbbbbbbbiibbbb",
"bbblbbbbbbbbbbbbbbbbbbbbbbbbbbbbbbbbbbbbbbbbkzNbuayaVbda`bkbubCbkblbeaOkaibaua-qhhha*bra@aACaabbbbbbbbbbbbbbbbbbbbbbbbbbbbbbbbbbbbbbbbjI{vObJbObQbPbKbQbQbKbPbRbQbRbJbHbGbGbGbGbMbJbKbDbLbLbLbLbLbLbLbLbPbPbDayazbObJbKbQbRbQbMbPapFatazaJaraCbGbGbtbxbHbxbDbyaJaJaJbNbzbhbda`bba?a:a[aNa2a2aNaIa^bTbTa^aQaQa^bca[a:a[a[a[a:a:a?a[a:a:a+CpjbaPa3hbbbbbbbbjbbbbbbbbbbbbbbbbbbbbbbbbbb",
"bbbbjjlbbbbbbbbbbbbbbbbbbbbbbbbbbbbbbbbbbbbbbjtayaNakaUa`bdbnbNbubeblaOfadbjjjbbha*aya@55aAaubbbbbbbbbbbbbbbbbbbbbbbbbbbbbbbbbbbbbbbbmwLbLbRbRbJbLbRbQbQbKbPbRbQbGbHbHbDbObQbGbMbPbKbRbLbLbLbPbRbLbPbPbLapbHajBbubDbtbHbJbRbQbRbLSNyCNNac|agaJ|asbxaJaJbxbNbzbla;bda`a~a>a>a?a:bibBbTbTbababTbTa^a^a^a)a?a[a:a:bAbAbAbAbAbAa:anrgbja3aPbbbbbbbbbjbbbbbbbbbbbbbbbbbbbbbbbbbb",
"bbbbbbbbklbbbbbbbbbbbbbbbbbbbbbbbbbbbbbbbbbbbbjahafaj]aUa`bebmbublbea7aXaabbbjaabba-?CBam{aeqbbbbbbbbbbbbbbbbbbbbbbbbbbbbbbbbbbbbbblav]TbLbPbLbLbJbRbQbQbPbPbRbQbMbJbKbMbMbGbHbPbRbPbLbLbPbLbKbGbMbKbKbPbLbMbD]LbtbFbGbJbJbJbKbPbLTGOaJa0a*aoEEDCLbNaJaJbzbla;bda`a`a~a>a>bba>a)a^a,babTbgbgbga,a^a:bibAbAbibAbibAbibgbAbia(a(a$aia3kbbbbbbbbbbbbbbbbbbbbbbbbbbbbbbbbbbbbbb",
"bbbbbbbbbljbjjaabaujbbbbbbbbbbbbbbbbbbbbbbbbbbbbbkaham{a!a7bdbqbubkbdaWaXaabbba-aXauaaa=a#a0a(DDDaeiibbbbbbbbbbbbbbbbbbbbbbbbbbbbbbbbbbbbabyObLbJbPbPbJbQbGbGbRbJbPbPbJbPbKbGbRbLbKbMbRbRbLbLbHbHbRbKbKbMbPbLbJapaJbQVaXVbDbHbJbKbKbPbLbLbLbLbJbJbDaDayvsttuLasbNbobhbda`a~bbbbbbbbbbbba?a,a^babaa:bia:a:bAbAbAbAbAbAbAbgbgbga@branaXaWa#aXaabbbbbbbbbbbbbbbbbbbbbbbbbbbbbbbbbbbbbbb",
"bbbbbbbbbbbbbj]aA]a-bbbbbbbbbbbbbbbbbbbbbbbbbbbbbbjtbau{a/bhbnbea`a9aXaajadaea(a0ata3a(ama|a$a7a4aAa3Caoqbbbbbbbbbbbbbbbbbbbbbbbbbbbbbbbbbbjs5apbPbKbMbMbKbQbQbObGbJbLbPbJbPbPbJbJbKbPbRbGbKbMbObObQbQbKbKbKbLbLbKbMbQbHbGFFbHbMbRbJbJbPbLbLbLbJbGbKbLbJLu4jjkai(bsaIbda`a`a~a~bbbba?bba[a7a$a4brbBa/a:a?a:bibibia,bAa&bra&bra#]aua*j]akAbbbbbbbbbbbbbbbbbbbbbbbbbbbbbbbbbbbbbbbb",
"bbbbbbbbbbbbbbauk{a(bbbbbbbbbbbbbbbbbbbbbbbbbbbbbbbjjp]a/a;a;a;a;a>anaXba!a0bba,a_a*aiauaXa*a4a&a|eananaPaua*aubbbbbbbbbbbbbbbbbbbbbbbbbbbbbbbjha3|bPbHbKbLbKbMbJbLbLbPbPbKbRbJbPbKbRbPbLbJbPbKbMbDbDbRbMbMbRbJbPbPbJbLbJbMbQaja!UbDbHbJbJbPbLbLbPbRbKbLbLOadhbbbbavakamaja`bda`a`a`bbbba?a:a$a*Aa!a_a&a[a:bibibAbibAbAa7a3anaWa!a-aubjba*a*jbbbbbbbbbbbbbbbbbbbbbbbbbbbbbbbbbbbbbbbb",
"bbbbbbbbbbbbbbbauoa(ibbbbbbbbbbbbbbbbbbbbbbbbbbbbbbjbbja4aQa`bdbvbla+ana_a(a@bAa$a*aahjaPqa_a_aqana&bBa$a_a_aAmbbbbbbbbbbbbbbbbbbbbbbbbbbbbbbbabyUbRbMbRbPbPbLbLbLbLbPbRbRbRbPbJbKbHbHbLbLbLbLbLbPbQbQbQbGbPbPbKbKbMbKbKbKbQ3ImaDbObHbRbPbPbPbKbKbL1P]hlbbbbbhaXa4bbbdbpa`a~a?bba:a(a-hhaaa!a(bBbBbibAa:bibAbAa(a!a7a$a*hbbbauaAanAbbbbbbbbbbbbbbbjbbbbbbbbbbbbbbbbbbbbbbbb",
"bbbbbbbbbbbbbbbbba-bbbbbbbbbbbbbbbbbbbbbbbbbbbbbbbbbbba-aka4a+bba;bbbAbBbBbTbUa=a!a!aubbauananauaAa_an]aeanaAmaeabbbbbbbbbbbbbbbbbbbbbbbbbaaaqbbbaPv(bRbHbHbMbJbKbLbLbKbKbKbQbQbJbJbQbObMbL66bLbLbLbPbKbQbMbPbKbKbPbQbGbQbMbHbO(aXFbqbObKbKbQbPbLbLapOaqqlbbbbbbjja3a]a;bda`a~bba@ana!adbbbjqa&bBbabibAa,a:bAa&a3abkbbbbadaXa#bTdAbbbbbbbbbbbbbbjbbbbbbbbbbbbbbbbbbbbbbbb",
"bbbbbbbbbbbbbbbbbjbbbbbbbbbbbbbbbbbbbbbbbbbbbbbbbbbbbadAa-ManaWa+a$a&bAbTbVa=a=a=aAJhbaua*bauaua*auaua*aubaqaAaubbbbbbbbbbbbbbbbbbbbbbbja3]jbhcaFbHbGbHbGbxbxbGaJasaJbGbDbGbHbGbGbQbPbLbLbLbL6bLbLbMbHbMbRbQbKbKbQbGbObDbxbObuaya*azbObKbPbQbRbMLcuqlbbbbbbbbjba&a;a;a~a?a7{a!hbbbbbaqaWa#a$bAa:bia?a:bTa&aAaukjbbla-a7a&a-jbbbbbbbbbbbbbbjbbbbbbbbbbbbbbbbbbbbbbbb",
"bbbbbbbbbbbbbbbbbbbbbbbbbbbbbbbbbbbbbbbbbbbbbbbbbbbbbbbadba!a-pa!aka7a{bAbgbBbTbr*hbjjbjhilbjbbba3liiiibbbbbbbbbbbbbbbbbbbbaP]blraybxbxbNbxbxbNbCbNbvbubNbNbNaJaJbxbNbMaJaJbKbPbJbKbKaJbNbNaJbGbGbQbHbGbObqbqbobnbzaCayajbtbDbQarafayzaumjbbbbbbbbbha*a=a~blbba{aba-adbbbbbbAaaa!a#bga:bia:a:babTa$a!hbbbja!a$a$]bbbbbbbbbbbbbbbaPbbbbbbbbbbbbbbbbbbbbbbbb",
"bbbbbbbbbbbbbbbbbbbbbbbbbbbbbbbbbbbbbbbbbbbbbbbbbbbbbbbbbhlbadauqa_a|brbibTbra!hbbbbaia*oaijaahjja3aaibiibbbbbbbbbbbbbbbbbbbbbbbjau]aLblbhbhbhblblblbzbsbzbzbCbubNbNbNbxbxbNbNbsbvbNbzbsbsbsbsbCbGbxbNbxbNbkbkbobhbvbtaKaVaCaUamfwahIaAbbbbbbbbbbbbbia@bebda?a_bjjbbbbAae]qbja_a&a7babababBbBbrAbbbbja-ana|a=anbjjbbbbbbbbbbbaajbbbbbbbbbbbbbbbbbbbbbbbb",
"bbbbbbbbbbbbbbbbbbbbbbbbbbbbbbbbbbbbbbbbbbbbbbbbbbbbbbbbbbbbbbba*aXa*a|bUa#a!fAhjAaAaWamamakaXaia*auakadibiiibbbbbbbbbbbbbbbbbbbbbbbbiaWbba`a`bfbpbpblbobhboboboblblbsbsbsbsbsbsbsbobsbsbsbsbsbsbCbCbCbsbsbnbobhbpaCbNbvbIa1AaXahCNF]5bbbbbbbbbbbbaaa*a|bba`a@fAbbbbbau{aAbau5a&a3ana&bTbabga$a*bbblbaba_a=a=a|ana*hbbbbbbbbbbbbbbbbbbbbbbbjbjljbbbbbbbb",
"bbbbbbbbbbbbbbbbbbbbbbbbbbbbbbbbbbbbbbbbbbbbbbbbbbbbbbbbbbbbbbbjakqaba&bra!a!aka*a!a$a]a)a5a~a7aWa#a9aWayaijiaaaibbbbbbbbbbbbbbbbbbbbbbbbja0bba~a>a`bpbhbhblbhbhbhbha}a}blbhbhboblblbobvbvboblblbobsbsbsbsbsblbla}a~bvbybsbmbt(azarbxbQajwiibbbbbbbbbbbkAaea@a`a7Aibbbbbbaelba*ana$Aa*a=a&bTa0aAqbbklAanaea_a$a#a_a*bbbbbbbjjbbbbbbbbbbbbbbbbbbkbobbbbbbb",
"bbbbbbbbbbbbbbbbbbbbbbbbbbbbbbibbbbbbbbbbbbbbbbbbbbbbbbbbbbbbbbbiaaaatbrbra#a|a#a=babAa@a6a~bpblbhbpa?a7{a-gfgiibbbbbbbbbbbbbbbbbbbbbbbbha!a$a?a?bba~bfbfbfbfbfbpbpbpbfbpbpa}bhbha}bhbha}bhbha}bhbhblbobobha}bhbpa`a}bNbsbobzbObObQbQbxDqkbbbbbbbbbbbbbha!a$a@ama0a-bbbbbbbkja-ana&atava!a|a0a!aubbjkaua_a_bjba#a=a|bbbbbbbjjbbbbjbjkljbbbbbbbbbookobbbbbb",
"bbbbbbbbbbbbbbbbbbbbbbbbbbbbbiibbbbbbbbbbbbbbbbbbbbbbbbbbbbbbbbbbbba-ba(br]brbBa,a,aSbfa}a}bfa>a.a)bBbaa(a!tMijbbbbbbbbbbbbbbbbbbbbbbbbha*a_a&bBbAa[a[a?a[a>a)a.bpbpbfaSa~bfa}a}a}bha}bfbfbfa~bfa}a}bhbhbpbhbha~a.a}axbvbobtbFbFbtbOajwkbbbbbbbbbbbbbjbauaAa3a(a{a_a-jbbbblaAbauIa$a|a!aaCaoadbbbjaabaAa*a*a_a#a&bVakAbbbIjbbbbbjjbokabkbbbjbbbbbbkjkjbbbbb",
"bbbbbbbbbbbbkbiibbbbbbbbbbbbbbbbbbbbbbbbbbbbbbbbbbbbbbbbbbbbbbbbbbbjiaibaua_a)aTaTa2a}a}bfa]a,a,a,a,bBa,a|a#a#aPrhbbbbbbbbbbbbbbbbbbbbbbbbbauaqa$bTbTbBbBbBbAbBa&a$a0a8bAa:a?a>aSaSa~bfaSaSa>aSa>aSa~bfbpbpbpbhbpbfa}a}blbnbCbCbtbObuaehjbbbbbbbbbbbbq*4ibta_a$aAaujbbbbbaaa3abaXaea&a$ophbbbjha!a=br]Ia_a<a|a=a*jbbbjbbbbbbbbbbbjjbbbaabbbbbbbkjkbbbbb",
"bbbbbbbbbbbbbbiibbbbbbbbbbbbbbbbbbbbbbbbbbbbbbbbbbbbbbbbbbbbbbbbbbbbbggqeaZaLa2a}bfa?a,babBbabaa:a,babababBa&ayrbbbbbbbbbbbbbbbbbbbbbbbbbhAa!a=bra$a=a=a|a=paXaXa_a&a&a@a:a{a,a)a)a[a]a{a,a,a,a[a.a~a}a}bpbebwblblblbnbtbCbtbOLzkbbbbbbbbbbbbbq**qbiba-aubbbbbbba-a_a&a|a!a$bga#a!i4aaha*Aa#bTbga#aqjbAaaaPbbbbbbbbbbbbbbbbbblbbbbbbbbbbbbbbbbbb",
"bbbbbbbbbbbbbbjbbbbbbbbbbbbbbbbbbbbbbbbbbbbbbbbbbbbbbbbbbbbbbbbbbbiiiihaia_aMaIaSbbbBbTbTbTbTbabaa[a[a,babababAa7Cfbbbbbbbbbbbbbbbbbbbbbbbbbbja!Aa!a!a!a!a*baaaaaka_aqa(a,bBbababTbTbTbabTbTbTbTbBa[bfa}a}bnaDbwbnbnbFbmbnbsafahkbbbbbbbbbbbbbbq**qbbbjbbbbbbbbha*a=bTa$anbTa$a!aeaA4a!]a|bTbAbra!ba*bqaqlbbjbbbbbbbbbbbbbbbbbbbbbbbbbbbbbbbbbb",
"bbbbbbbbbbbbbbbl4bbbbbbbbbbbbbbbbbbbbbbbbbbbbbbbbbbbbbbbbbbbbbipbiibbiqa3a5a2a.bBbabTbUbUbUbTbTbTbabBbBbabBbBbabBLD/jbbbbbbbbbbbbbbbbbbbbbbbbbhbhhhadhbbbbqa*ebabibabTbUbUbUbUbUbUbUbUbUbTa)aTa}blbmbmbtbtbobna;ajaijbbbbbbbbbbbbbbbbab4bbbbbbbbbbbbbbaala=bTbra$bra_oa<ana=bVbTbgbgbVa_keaaatla_anaujhjbbbbbbbbbbbbbbbbbbbbbbbbbbkkbbbb",
"bbbbbbbbbbbbbbbblbbbbbbbbbbbbbbbbbbbbbbbbbbbbbbbbbbbbbbbbbbbiiak]aabbgia3a7aHaTbabTbUbUbVbVbUbUbUbUbUbTbTbTbTbTbabBaVG*aibadjjbbbbbbbbbbbbbbbbbbbbbbbbbbbbbbbba3a*a=bAa{bBbTbUbUbVbUbUbUbUbUbUbaa)aSaOaLbhbobCbCbnaL5zkbbbbbbbbbbbbbbbbbk4bbbbbbbbbbbbbbAakaAa0bTbVa$ana<Ba$bUbUbTbBbTbVa_ana#a=a(a-a4a(bjAa!a*bbbadjbbbbbbbbbbbbbbbbbbbbbl4bbbb",
"bbbbbbbbbbbbbbbbbbbbbbbbbbbbbbbbbbbbbbbbbbbbbbbbbbbbbbbbbbbiapaAa4akaibadsa0aHa2bTbUbUbUbVbVbVbVbVbVbVbVbUbUbUbUbTbUa&a@a7a$ayAa!auaukbbbbbbbbbbbbbbbbbbbbbbbbbbbbbbbaaa!a$bibabBbBbTbVbUbUbUbUbUbUbTa,a}aUBaNbla}bobna}anaXobbbbbbbbbbbbbbbbbbjjbbbbbbbbbbbbbbbAaqa_brbUbray4a!a=bUbUbUbUbUa=aPa|a(a=akbjan]a_a$brana3aPAa!a*baajhjjAbbbbbbbbbbbbbbbkabbbb",
"bbbbbbbbbbbbbbbbbbbbbbbbbbbbbbbbbbbbbbbbbbbbbbbbbbbbbbbbbbbiibibhiiiakraWaHaMbUbUbVbVbVbVbVbVbVbVbVbVbUbVbVbVbVbVbUa&babia{a$a=aAaeahjaabbbbbbbbbbbbbbbbbbbbbbbbbbbbbja*a=bBbibaa?bBbUbUbUbUbUbUbUbTa.bhaUajbsbvblboa`a(a!aabbbbbbbbbbbbbbbbbbbbbbbbbbbbbbbbbbbbbakaea=bTbUbra#{CbrbUbUbUa&Ja=bBbr]a_a_aAa_a_a=baa$aAbrbra#a_a*a!jaAja3a3Aa<bbbbbbbbbbbbbbkbbb",
"bbbbbbbbbbbbbbbbbbbbbbbbbbbbbbbbbbbbbbbbbbbbbbbbbbbbbbbbbbbbbbbbibigdfa0awa]bUbUbVbVbVbVbVbVbVbVbVbVbVbVbVbUbTbTbababBbBa,a]a>a~a}aWaXaXjbbbbbbbbbbbbbbbbbbbbibbbbbbiiha-a#a{a{a{bBbabTbTbTbTbTbTbBaTa}bhbsbvblblbha0aXaabbbbbbbJ4bbbbbbbbbbbbbbbbbbbbbbbbbbbbbbaaIa|bTbUa05aA{a(a#bra$a!a=a$branaXa_a=a(a(a<a|bra&a?a?bibTbra=adAAa-a3anhAbbbbbbbbbbbbbbbbb",
"bbbbbbbbbbbbbibbbbbbbbbbbbbbbbbbbbbbbbbbbbbbbbbbbbbbbbbbbbbbbbbbibbigfaIbva@bTbUbVbVbVbVbVbVbVbVbVbVbVbUbUbTbabaa{a,a,a:a?a>aSbhbsbnaUa0JbbbbbbbbbbbbbbbbbbbbbbbbbiiaagfhaWa?a{a,a{a,bBbBbBbababAa5aMbhblbhblbha5aAbjjbbbbbblaPBkbbbbbbbbbl4bbbbbbbbbbbbbbbbbbbAa*a#bTa#a!a*a*aXa!Babbja_a|a(a#a*hha*a*aafata=a$baa:bAa:bAa$aqa_ana|a=abaea*bobbbbbbbbbbbbbb",
"bbbbbbbbbbbbbbbbbbbbbbbbbbbbbbbbbbbbbbbbbbbbbbbbbbbbbbbbbbbbbbbbbbbbhMNaxa2bBbUbUbVbVbVbVbVbVbVbVbVbUbUbTbTbabBa,a?a[a[a>aSaSbhbobqbFbeana*jbbbbbbbbbbbbbbbbbbbbbbbiiaiih/a(a?a?a,a[a?a[a:a?a[a[a?aRaUbhbhbhbpbfa5aeaujbbbbbblbblbbbbbbbbqBCbbbbbbbbbbbbbbbbbbbbha*ata$bra=a=a=a_kJa-adaeAkjaubjba3aqa4Ba!a$bAbaa{a?a?bra_a#a=a*aqa(aAjAbbbbbbbbbbbbbb",
"bbbbbbbbbbbbbbbbbbbbbbbbbbbjlbbbbbbbbbbbbbbbbbbbbbbbbbbbbbbbbbbbbbbbiakwajbya)bUbUbVbVbVbVbVbVbUbUbUbUbTbTbBbBbBa[a?a[a?a>a~bfbhblbqbqa`a(a!jbbbbbbbbbbbjbbbbbbbbbbbbbiibbbaua7a?a?a?a~a>a>a~a~a~aSbfaYaIbhblbfbfa.ataujbbbbbbbbbibbbbbbbbblhbbbbbbbbbbbbbbbbbbbbbha*a_a#a|bra&a$a4a_ana_aAa_aA]ana_ab]ankaeaaEa7a@bAa:aWa7a,a_a!a*adAaPananataabbbbbbbbbbbbj",
"bbbbbbbbbbbbbbbbbbbbbbbbbbbjakaabbbbbbbbbbbbbbbbbbbbbbbbbbbbbbbbbbbbbbiaaae}axbTbUbUbUbUbUbUbUbUbUbTbTbababibAbaa:a:a[bba`bfa~aLa;a;bhaQaqjbbbbbbbbbbbbbbbbbbbbbbbbbbbiibadaXaVa~bfbfa~bfbfbfbfa~a~aOaLa}bha}bfa}a~ana-jbjjbjlbbiibbbbbbbbbbbbbbbbbbbbbbbbbbbbbbbbbba*a!a!a*aaaAa_ana(a(a0aya_a0a0atjjqjaaPHatHaVaVHaXaWa@a4{fadauaqa3ana=jbbbbbbbbbbbj",
"bbbbbbbbbbbbbbbbbbbbbbbbbbbbbadbbbbbbbbbbbbbbbbbbbbbbbbbbbbbbbbbbbbbbiiaka%ajapaNbUbUbUbUbUbUbUbTbBbBbBbBbBbAbibBa:a[a?bba`a~aTa}bobhaZ{a*adbbbbbbbbbbbbbbbbbbbbbbbbbbbbbblahambhbfa~a~bpbfbfa~bfbfbfbhbha}aYa}bhbha7auaabbjAAlbbbbbbllbbbbbbbbbbbbbbbbbbbbbbbbbbbbbblhhbAa*auauaXhanq{ayaXjbaeaAaeaXa*jptDGBha*a(a#{Cabbbauaaa_aAauakakbbbbbbbbb",
"lbbbbaubbbbbbbbbbbbbbbbbbbbbbbbbbbbbbbbbbbbbbbbbbbbbbbbbbbbbbbbbbbbbbbbiaka_2apaZa,bUbUbUbTbTbTbBbAbBbBbAbAbabia[a?a?a~bpa~bfbhbha~a(aXaabbbbbbbbbbbbbbbbbbbbbbbbbbbbbbbadahambhbhbfbfbfbpa~bfbfbfbfbfa}bhaVbfbhbhaQiIaeaabj]]aubbbbbbjlbbbbbbbbbbbbbbbbbbbbbbbbbbbbbbbbbbbbbjadbaujla-apavaya7a7aWa$5jaia4a5Bija!a!a<*aAbbbolhbbaabbbbbbbbb",
"bbjjjataabbbbbbbbbbbbbbbbbbbbbbbbbbbbbbbbbbbbbbbbbbbbbbbbbbbbbbbbbbbbbbbbaqa%ajapTT2a]bTbibAbBbia:a:a[a?a?bAbAa?bba>bfbpa~bpa}a`a0a!aabbbbbbbbbbbbbbbbbbbbbbbbbbbbbbbbau{a;blbha}bfbfbfa~a~a~a~bfa}bhblaYa~bpbhaQhqaPaba!brbra!hbbbbbbbbbbbbbbbbbbbbbbbbbbbbbbbbbbbbbbbbbbbbbbbjjhpH{aXaWbpa}bpaQ5adaha0bf5a*kjhbqqbbbblbbbAjbbbbbbbh",
"bbbjjaqadjbbbbbbbbbbbbbbo*abibbbbbbbbbbbbbbbbbbbbbbbbbbbbbbbbbbbbbbbbbbbbiif{3apRRTa,bTa[bAbibAa?a?bbbba?a?bbbba~bpbda~bpbpbba(a!adbbbbbbbbbbbbbbbbbbbbbbbbbbbbbbbaPzLbsbhbha}bpbfbpa~a~bfbfbpbfa~bpa;a}a}bpa]aqbaiaXa#bAbrAbbbbbbkbbbbbbbbbbbbbbbbbbbbbbbbbbbbbbbbbbbbbbbbbbadai5aQa1aVa}blblbeaV?rza0bha@ana*jbbbbbbbbbbbaua_]bbbbbbqa-",
"aebbbbbbbbbbbbbbbbbbjakbhab*IaabbbbbbbbbbbbbbbbbbbbbbbbbbbbbbbbbbbbbbbbbbbiigM]aj}apT2aZbBbibBbBbAa[a[a?bbbba~a`a`bpa`a`bpa`a?a(a!hbbbbbbbbbbbbbbbbbbbbjbbbbbbbbbifsUbsblbobebhbebhbpbpbpa~aSbfaLa~bfbpbba?a|auaua(a8bbbga|a*bbbbbabjbbbbbbbbbbbbbbbbbbbbbbbbbbbbbbbbbbbbbbbbjjaqayaYbkbnbobnboblblblaUayaoa9bobda$a!aajjbbbbbbbbbau]a_jbbbbb*ay",
"a3abbbbbbbbbbbbbbbbbbbja3aabloaakbbbbbbbbbbbbbbbbbbbbbbbbbbbbbbbbbbbbbbbbbbbbaghu{azagagagaEbibBbBbBbAa[a?a>a`bfa>a>bbbbbpa`a~a{a_a*jbbbbbbbbbbbbbbbbbbbbbbbbbbbbbbigt3bCbzbNbsboboblbhbfbfbfa;bhbobha~a?a7anqiaua5bpa`bTa_a!hbbbblbbbbbbbbbbbbbbbbbbbbbbbbbbbbbbbbbbbbbbbjaP4ahana;bobnbnbobobnbobobobnblaUaLbobha@BAikjbbbbbbmjjAa3aabbbq*a0an",
"aaobjaabbhbbbbbbbbbbbbbjbbbbbadjbbbbbbbbbbbbbbbbbbbbbbbbbbbbbbbbbbbbbbbbbbbiaiaqt]aragag|aSa:a:bibAbbbba~a`a>a?a~a~a?a`a>a?a&AbbbbbbbbbbbbbbbbbbbbbbbbbbbbbbbbbaasFbCbzbNbzbsbsboblblbhbhbhbhboa`a?aWma-hada!a$bpa`bVfAbbauhjbbjlbbbbbbbbbbbbbbbbbbbbbbbbbbbbbbbbbbbkaiaXauaqaUbCbmbnbmbnbnbnbtbnbsbsbzbsbsbna;a?a#C*pbbbb*obnBa-bha3bbbbbaAaa",
"bbbIlbbbbbbbbbbbbbbbbbbbbbbbbjbbbbbbbbbbbbbbbbbbbbbbbbbbbbbbbbbbbbbbbbbbbiahheaFagag|aSa?a?a[a?a?bba`bba[a>a~a~a>a>a?bAa(a*jbbbbbbbbbbbbbbbbbbbbbbbbbbbbbbbiiakraUbDbvbzbCbsbsbsbsbsblblblbha`a@Abadbaaa-a9bdbbbra!hbja3a3aqbbjlbbbbbbbbbbbbbbbbbbbbbbbbbbbbbbbbbbbaXayajazbwbFbFbFbFbFbFbFbFbFbmbnbzbzbnbsbsbobda:aWEH4bbbBabjau{a=aqfhbbbbbaub",
"bbbaabbbbbbbbbbbbbbbbbbbbbbbbbjbjbbbbbbbbbbbbbbbbbbbbbbbbbbbbbbbbbbbbbbbbbbihiearagT|a.a?bbbba?a?a~a~a?bba~bfa~a>a:bAbra<bbbbbbbbbbbbbbbbbbbbbbbbbbbbbbbbbbiak/ayaJbNbzbzbzbsbsbsbnblbea;bpa`a)anaujha-aya`bdbAa_a!hbba3bbbbbbbbbbbbbbbbbbbbbbbbbbbbbbbbbbbbbbbboajbwbFbFbFbEbFbEbFbFbEbFbmbmbnbnbnbzbtbnbzbzbna;a:a0DDbjbblbbja(a=aabbbbbbbb",
"bbbbbbbbbbbbbbbbbbbbbbbbbbbbbbbbbbbbbbbbbbbbbbbbbbbbbbbbbbbbbbbbbbbbbbbbbbbhtaybt|agara[a~a~a~bba?bba>a?a>a?a[a[a&a|a=a3bbbbbbbbbbbbbbbbbbbbbbbbbbbbbbbbbbbiaha%}bGbubCbCbzbsbsbnblbebpa}a`bba(a!hhai{bdbebga%AbbbAbbbbbbbbbbbbbbbbbbbbbbbbbbbbbbbbbbbbbbkaiFbFbFbIbEbEbEbEbIbIbFbEbFbmbmbnbnbFbtbCbFbFbzbza;a>bAa#a!ijbbbbbba*aelbbbbbbbb",
"bbbbbbbbbbbbbbbbbbbbbbbbbbbbbbbbbbbbbbbbbbbbbbbbbbbbbbbbbbbbbbbbbbbbbbbbbbahtaybD|agaGbba~a~bbbba?bAa{a?a:bAbaa#fa!a!Abbbbbbbbbbbbbbbbbbbbbbbbbbbbbbbbbbbiaf/3bObubCbxbNbzbzblbhbla;bha.a7]aubbbqazbka$a*jbbbbbbbbbbbbbbbbbbbbbbbbbbbbbbbbbbbbbbbbbblaiambFbFbIbIbIbIbIbIbEbEbFbFbmbmbFbFbIbtbDbtbFbnboa;a`a>a:a#Jbbbjbbbjqbbbbbbbbb",
"bbbbbbbbbbbbbbbbbbbbbbbbbbbbbbbbbbbbbbbbbbbbbbbbbbbbbbbbbbbbbbbbbbbbbbbbbiafaua|buTaga}a`a`a`a~a~bbbAbia:a,bAa$a!ihadbbbbbbbbbbbbbbbbbbbbbbbbbbbbbbbbbbbbbiaPyVbQbtbtbDbxbCbzboblboa;a`a0aXbbbbbqae5AbbbbbbbbbbbbbbbbbbbbbbbbbbbbbbbbbbbbbbbbbbbbjauFbwbEbFbIbIbIbEbEbEbEbmbEbEbEbEbEbFbObDbFbFbFbmbkbea}bba&adbbbbbbbbbbbbbbbbbb",
"bbbbbbbbbbbbbbbbbbbbbbbbbbbbbbbbbbbbbbbbbbbbbbbbbbjbbbbbbbbbbbbbbbbbbbbbiaafaha9|Tasa}bdbdbdbpa~a>a:a[a[a{bAa|aXadbbbbbbbbbbbbbbbbbbbbbbbbbbbbbbbbbbbbbbbbhrEbxbtbtbtbDbzbobzbobvblbpa(a-aabbbbbbaubbbbbbbbbbbbbbbbbbbbbbbbbbbbbbbbbbbbbbbbbbbbbjauaAaKbEbEbIbIbIbEbIbIbIbIbIbIbIbIbFbHaJbDbFbFbFbmbqbobebda^a_aujbbbbbbbbbbbbbbbb",
"bbbbbbbbbbbbbbbbbbbbbbbbbbbbbbbbbbbbbbbbbbbbbbbbbbbbbbbbbbbbbbbbbbbbbbbbiiahMazagarbma;a;a;bdbda`a~a>bba?a?a@a_auibbbbbbbbbbbbbbbbbbbbbbbbbbbbbbbbbbbbbbbbbadsambtbDbDbtbmbobnbzaHbha7fjbbbbbbjjbbbbbbbbbbbbbbbbbbbbbbbbbbbbbbbbbbbbbbbbbbbbbbkaXaVbnbIbEbEbEbEbEbEbIbIbIbIbIbIbFbGbObDbFbtbFbnbzbnblbda{ana*jbbbbbbbjbbbbbbbb",
"bbbbbbbbbbbbbbbbbbbbbbbbbbbbbbbbbbbbbbbbbbbbbbbbbbbbbbbbbbbbbbbbbbbbbbbbbbgidaB|bFbla;bha}bhbdbfbpbpa`a`aZayaXadbbbbbbbbbbbbbbbbbbbbbbbbbbbbbbbbbbbbbbbbiiafMaIbFbEbFbmbmbqaCbvaRfaujbbbbbbbbbbbbbbbbbbbbbbbbbbbbbbbbbbbbbbbbbbbbbbbbbbbbbbjaiaybobnbkbkbkbkbmbnbFbFbFbFbIbIbFbtbFbDbFbFbmbobobobla>a&abAbbbbbbbbbbbbbbbbb",
"bbbbbbbbbbbbbbbbbbbbbbbbbbbbbbbbbbbbbbbbbbbbbbbbbbbbbbbbbbbbbbbbbbbbbbbbbiaidal|bEbobhboboa;a;a}a;bhbha}amqjbbbbbbbbbbbbbbbbbbbbbbbbbbbbbbbbbbbbbbbbiaiiaara4bmbIbIbEbmbqboaL5aiadbbbbbbbbbbbbbbbbbbbbbbbbbbbbbbbbbbbbbbbbbbbbbbbbbbbbbbbbbavaObsbobea;a;bnbwaKaUajaVa1bEbFbFbmbFbEbEbmbeblbobfbba$a*hibbbbbbbbbbbjbbbb",
"bbbbbbbbbbbbbbbbbbbbbbbbbbbbbbbbbbbbbbbbbbbbbbbbbbbbbbbbbbbbbbbbbbbbbbbjbiageaDagbqblbobsbsbla}a}blblblaWrhbbbbbbbbbbbbbbbbbbbbbbbbbbbbbbbbbbbbbbbbbbibbgpa_a`bIbIbwbea}aUata-jbbbbbbbbbbbbbbbbbbbbbbbbbbbbbbbbbbbbbbbbbbbbbbbbbbbbbbbbjAaqaRbsbna;a;a;aV{aPaXaXaXa*aWbka1blbEbEbmbmbebobla>a@]phibbbbbbbbbbba*bbbb",
"bbbbbbbbbbbbbbbbbbbbbbbbbbbbbbbbbbbbbbbbbbbbbbbbbbbbbbbbbbbbbbbbbbbbbbbbbbaqMa#aC|bkblbobsbsbsbsaIaNaIaVa3pbbbbbbbbbbbbbbbbbbbbbbbbbbbbbbbbbbbbbbbbbbbbbbiija|a9a|aya4ata-aulbbbbbbbbbbbbbbbbbbbbbbbbbbbbbbbbbbbbbbbbbbbbbbbbbbbbbbbbbjAata+a1aV555a-aibkaPaabqa0a|aRboblbkbnbzbsbpa?a(aXadbbbbbbbbbbbbaqanAjjb",
"bbbbbbbbbbbbbbbbbbbbbbbbbbbbbbbbbbbbbbbbbbbbbbbbbbbbbbbbbbbbbbbbbbbbbbbbbiakha+as|bqboblbsbsbsbsbsafCakpbbbbbbbbbbbbbbbbbbbbbbbbbbbbbbbbbbbbbbbbbbbbbbbbbba!a!aXa-a-aujjbbbbbbbbbbbbbbbbbbbbbbbbbbbbbbbbbbbbbbbbbbbbbbbbbbbbbbbbbbbbauaifaXa-aiaijjbbbbbjqayayaLboboboblbfa?a@hjbbbbbbbbbbbbbbja|aya!a-b",
"bbbbbbbbbbbbbbbbbbbbbbbbbbbbbbbbbbbbbbbbbbbbbbbbbbbbbbbbbbbbbbbbbbbbbbbbbgta=bcaHbEbEboblbobsbsbsbsaV/akibbbbbbbbbbbbbbbbbbbbbbbbbbbbjbbbbbbbbbbbbbbbbbbbbbhaaaajljbbbbbbbbbbbbbbbbbbbbbbbbbbbbbbbbbbbbbbbbbbbbbbbbbbbbbbbbbbbbbbbjAkjjjbbbbbbbbjkaXa0bhbpa>a:a,a@a|a-jbbbbbbbbbbbbbbauaWa(anaP",
"bbbbbbbbbbbbbbbbbbbbbbbbbbbbbbbbbbbbbbbbbbbbbbbbbbbbbbbbbbbbbbbbbbbbbbbiigqa=a{aGbEbwbqblboblaNaUaWfgaibbbbbbbbbbbbbbbbbbbbbbbbbbbbbbbbbbbbbbbbbbbbbbbbbbbbbbbbbbbbbbbbbbbbbbbbbbbbbbbbbbbbbbbbbbbbbbbbbbbbbbbbbbbbbbbbbbbbbbbbbbbbbbbbbbbbbbbjbana0a(a#a#kbbbbbbbbbbbbbbbhauata@a:a$a<",
"bbbbbbbbbbbbbbbbbbbbbbbbbbbbbbbbbbbbbbbbbbbbbbbbbbbbbbbbbbbbbbbbbbbbiiiaiakaia#a^aGbEbEbmbwboaNaquuMiibbbbbbbbbbbbbbbbbbbbbbbbbbbbbbbbbbbbbbbbbbbbbbbbbbbbbbbbbbbbbbbbbbbbbbbbbbbbbbbbbbbbbbbbbbbbbbbbbbbbbbbbbbbbbbbbbbbbbbbbbbbbbbbbbbbbbbbbbba-aXaqbaua_aubbbbbbbbbbbbbjmfea+a+a*b",
"bbbbbbbbbbbbbbbbbbbbbbbbbbbbbbbbbbbbbbbbbbbbbbbbbbbbbbbbbbbbbbbbbbiiiiiaaad/a|a5aCbIbEbFa1amaygaqakibbbbbbbbbbbbbbbbbbbbbbbbbbbbbbbbbbbbbbbbbbbbbbbbbbbbbbbbbbbbbbbbbbbbbbbbbbbbbbbbbbbbbbbbbbbbbbbbbbbbbbbbbbbbbbbbbbbbbbbbbbbbbbbbbbbbbbbbbbbbjk]bra@a|aXaabbbbbbbbbbbka*va+a7a({aug",
"bbhbbbbbbbbbbbbbbbbbbbbbbbbbbbbbbbbbbbbbbbbbbbbbbbbbbbbbbbbbbbbbbiibbbiaia]a#aUa;bEbmbFaKa4Mgibbbbbbbbbbbbbbbbbbbbbbbbbbbbbbbbbbbbbbbbbbbbbbbbbbbbbbbbbbbbbbbbbbbbbbbbbbbbbbbbbbbbbbbbbbbbbbbbbbbbbbbbbbbbbbbbbbbbbbbbbbbbbbbbbbbbbbbbbbbbbbbha!a|a@anaihbbbbbbbbbbAahCaVa~a4aXpii",
"bbdbbbbbbbbbbbbbbbbbbbbbbbbbbbbbbbbbbbbbbbbbbbbbbbbbbbbbbbbbbbbbbbbbbiaaaaea#aQbebEbEbFaVzakibbbbbbbbbbbbbbbbbbbbbbbbbbbbbbbbbbbbbbbbbbbbbbbbbbbbbbbbbbbbbbbbbbbbbbbbbbbbbbbbbbbbbbbbbbbbbbbbbbbbbbbbbbbbbbbbbbbbbbbbbbbbbbbbbbbbbbbbbbbbbbbbbbAbaubbbbbbbbbbbAaka0aLaIaytggii",
"bbAbbbbbbbbbbbbbbbbbbbbbbbbbbbbbbbbbbbbbbbbbbbbbbbbbbbbbbbbbbbbbbbbbbiiaabana8aNbwbEbwa4rfibbbbbbbbbbbbbbbbbbbbbbbbbbbbbbbbbbbbbbbbbbbbbbbbbbbbbbbbbbbbbbbbbbbbbblbbbbbbbbjkkbbbbbbbbbbblbbbbbbbbbbbbbbbbbbbbbbbbbbbbbbbbbbbbbbbbbbbbbbbbbbbbbbbbbbbbbbbbbbja-a4aSa}a4aXaabbbb",
"bbbbbbbbbbbbbbbbbbbbbbbbbbbbbbbbbbbbbbbbbbbbbbbbbbbbbbbbbbbbbbbbbbbbbbbagada=3awbwbFbmazanavjbbbbbbbbbbbbbbbbbbbbbbbbbbbbbbbbbbbbbbbbbbbbbbbbbbbbbbbbbbbbbbbbbbbbbb4jbbbbbbbbjjbbbbbbbbbbqubbbbbbbbbbbbbbbbbbbbbbbbbbbbbbbbbbbbbbbbbbbbbbbbbbbbbbbbbbbbbbbbbbbbaqanatailbbbbb",
"bbbbbbbbbbbbbbbbbbbbbbbbbbbbbbbbbbbbbbbbbbbbbbbbbbbbbbbbbbbbbbbbbbbbbbbiala$2axbubCbDaU]qjbllbbbbbbbbbbbbbbbbbbbbbbbbbbbbbbbbbbbbbbbbbbbbbbbbbbbbbbbbbbbbbbbbbbbbbbbbbbbbbbbbbbbbbbbjpCGobbbbbbbbbbbbbbbbbbbbbbbbbbbbbbbbbbbbbbbbbbbbbbbbbbbbbbbbbbbbbbbbbbbbauaujbbbbbb",
"bbbbbbbbbbbbbbbbbbbbbbbbbbbbbbbbbbbbbbbbbbbbbbbbbbbbbbbbbbbbbbbbbbbbbbbbaAa|T}bNbuafspbbqahahbbbbbbbbbbbbbbbbbbbbbbbbbbbbbbbbbbbbbbbbbbbbbbbbbbbbbbbbbbbbbbbbbbbbbbbbbbbbbbbbbbbbbbbjpCGIbbbbbbbbbbbbbbbbbbbbbbbbbbbbbbbbbbbbbbbbbbbbbbbbbbbbbbbbbbbbbbbbbbjaPjjbbbbbbb",
"bbbbbbbbbbbbbbbbbbbbbbbbbbbbbbbbbbbbbbbbbbbbbbbbbbbbbbbbbbbbbbbbbbbbbbbbgaua=azaIbNawffgbqatNamqbbbbbbbbbbbbbbjbbbbbbbbbbbbbbbbbbbbbbbbbbbbbbbbbbbbbbbbbbbbbbbbbbbbbbbbbbbbbbbbbbbbbbbbbqubbbbbbbbbbbbbbbbbbbbbbbbbbbbbbbbbbbbbbbbbbbbbbbbbbbbbbbbbbbbbbbbbbbjaPbbbbbbbbb",
"bbbbbbbbbbbbbbbbbbbbbbbbbbbbbbbbbbbbbbbbbbbbbbbbbbbbbbbbbbbbbbbbbbbbbbbbiidajaOaUaNNzibbaeayHqbbbbbbbbbbbbljrbbbbbbbbbbbbbbbbbbbbbbbbbbbbbbbbbbbbbbbbbbbbbbbbbbbbbbbbbbbbbbbbbbbbbbbbbbkbk*bbbbbbbbbbbbbbbbbbbbbbbbbbbbbbbbbbbbbbbbbbbbbbbbbbbbbbbbbbbbbbbbbbbjbbbbbbb",
"bbbbbbbbbbbbbbbbbbbbbbbbbbbbbbbbbbbbbbbbbbbbbbbbbbbbbbbbbbbbbbbbbbbbbbbbbbt5ajaf3aIa|ataPbqaiaibbbbbbbbbbbbbavEErjbbbbbbbbbbbbbbbbbbbbbbbbbjbbbbbbbbbbbbbbbbbbbbbbbbbbbbbbbbbbbbbbbbbbbbbbbbjkbbbbbbbbbbbbbbbbbbbbbbbbbbbbbbbbbbbbbbbbbbbbbbbbbbbbbbbbbbbjjbbbbbbbbbbbbbb",
"bbbbbbbbbbbbbbbbbbbbbbbbbbbbbbbbbbbbbbbbbbbbbbbbbbbbbbbbbbbbbbbbbbbbbbbbbbbtu5Nama(aqjbbjbbbbbbbbbbbbbbq4Bqbbbbbbbbbbbbbbbbbbbbbbbbbbbbbbbbbbbbbbbbbbbbbbbbbbbbbbbbbbbbbbbbbbbbbbbbbbbbbbbbbbbbbbbbbbbbbbbbbbbbbbbbbbbbbbbbbbbbbbbbbbbbbbbbbbbbbbbbbbbbbbbbbbbbbbbb",
"bbbbbbbbbbbbbbbbbbbbbbbbbbbbbbbbbbbbbbbbbbbbbbbbbbbbbbbbbbbbbbbbbbbbbbbbbbbjltwaha*aubbbbbbbbbbbbbbbbbbbqpbbbbbjbbbbbbbbbbbbbbbbbbbbbbbbbbbbbbbbbbbbbbbbbbbbbbbbbbbbbbbbbbbbbbbbbbbbbbbbbbbbbbbbbbbbbbbbbbbbbbbbbbbbbbbbbbbbbbbbbbbbbbbbbbbbbbbbbbbbbbbbbbbbbbbbbbb",
"bbbbbbbbbbbbbbbbbbbbbbbbbbbbbbbbbbbbbbbbbbbbbbbbbbbbbbbbbbbbbbbbbbbbbbbbbbbbbjklbbbbbbbbbbbbbbbbbbbbbbbbbbbbk4bbbbbbbbbbbbbbbbbbbbbbbbbbbbbbbbbbbbbbbbbbbbbbbbbbbbbbbbbbbbbbbbbbbbbbbbbbbbbbbbbbbbbbbbbbbbbbbbbbbbbbbbbbbbbbbbbbbbbbbbbbbbbbbbbbbbbbbbbbbbbbbbbb",
"bbbbbbbbbbbbbbbbbbbbbbbbbbbbbbbbbbbbbbbbbbbbbbbbbbbbbbbbbbbbbbbbbbbbbbbbbbbbbbbbbbbbbbqjmjbbbbbolbbbbbbbbbbbljbbbbbbbbbbbbbbbbbbbbbbbbbbbbbbbbbbbbbbbbbbbbbbbbbbbbbbbbbbbbbbbbbbbbbbbbbbbbbbbbbbbbbbbbbbbbbbbbbbbbbbbbbbbbbbbbbbbbbbbbbbbbbbbbbbbbbbbbbbbbbbbbbb",
"bbbbbbbbbbbbbbbbbbbbbbbbbbbbbbbbbbbbbbbbbbbbbbbbbbbbbbbbbbbbbbbbbbbbbbbbbbbbbbbbbbllnao4s4*bbbbbC4bbbbbbbbbbbbbbbbbbbbbbbbbbbbbbbbbbbbbbbbbbbbbbbbbbbbbbbbbbbbbbbbbbbbbbbbbbbbbbbbbbbbbbbbbbbbbbbbbbbbbbbbbbbbbbbbbbbbbbbbbbbbbbbbbbbbbbbbbbbbbbbbbbbbbbbbbbbbbbb",
"bbbbbbbbbbbbbbbbbbbbbbbbbbbbbbbbbbbbbbbbbbbbbbbbbbbbbbbbbbbbbbbbbbbbbbbbbbbbbbbbbJrsjDGEEbbbbbbqbbbbbbbbbbbbbbbbbbbbbbbbbbbbbbbbbbbbbbbbbbbbbbbbbbbbbbbbbbbbbbbbbbbblmmmbbbbbbbbbbbbbbbbbbJjjlJbbjbjlnn4nnljbbbmmjbbbbbbljbbjllljjbbbbbbbbbbbbbbbbbbbbbbbbbbbbbb",
"bbbbbbbbbbbbbbbbbbbbbbbbbbbbbbbbbbbbbbbbbbbbbbbbbbbbbbbbbbbbbbbbbbbbbbbbbbbbbbbmnvEGKPPKHjbbbbbbbbbbbbbbbbbbbbbbbbbbbbbbbbbbbbbbbbbbbbbbbbbbbbbbbbbbbbbbbbbbbbbblJmmsyyvJnmljljjjbbbbbbbbbvqbrulnbmqsxx:xxsblaolvyrmnnnnJrq4aobrsrppjm4aonjbbbbbbbbbbbbbbbbbbbbbbbb",
"bbbbbbbbbbbbbbbbbbbbbbbbbbbbbbbbbbbbbbbbbbbbbbbbbbbbbbbbbbbbbbbbbbbbbbbbbbbbbJpvvDX9ZGbSmrbbbbbbbbbbbbbbbbbbbbbbbbbbbbbbbbbbbbbblbbbbbbbbbbbbbbbbbbbbbbjmlbbblnnlruvyDGKGvxvsrrpbbln4njbmo*GkpCEsxjxEQPKKKPD4u:sGKCyxxxyvCn::qCDCB*ry::ypmn44nnJjbbblbbbbbbbbbbbb",
"bbbbbbbbbbbbbbbbbbbbbbbbbbbbbbbbbbbbbbbbbbbbbbbbbbbbbbbbbbbbbbbbbbbbbbbbbbmaomyCKKZbWbX^EuJbbbbbbbbbbbbbbbbbbbbbbbbbbbbbbbbbjjjllmrmn?mnnnnnnj4aonnmmJmn4bpvrao4nrxxuDEKPZbYbZb0XKGECC*qpux:xbJyxsXZQ0b1QXQXZb2b2bYb38b4[ZXPX>b5QKKKKXX^YXKQb5bY^YZQXXPKBv:::yxsbbnm*jjbbbbbbbbbb",
"bbbbbbbbbbbbbbbbbbbbbbbbbbbbbbbbbbbbbbbbbbbbbbbbbbbbbbbjjjljbbb4jbbbbbbbbbu:yECEQb6,bXZobjbbbbbbbbbbbbbbbbbbbbbbbbbbbbbjjnnqprrryCyxyvyxxxxxs::xxyvuyx:p*GE::xDKXQY_)b0b0b0bXbXbXbX,+[)ZQQXKPKjxGXQ%bWb6b3b0b6b2b6b2bXb7b8b1<$bYbXbWb5b58b9,b!b4b6b6bXb6b6b6b2b2b2b2b6b0b1b1b1b3b6b2b2&!XKKKKKEavrxurqbbnmbbbbbbb",
"bbbbbbbbbbbbbbbbbbbbbbbbbbbbbbbbbbbbbbjbbbbbbbbbbbbbbblqpprpnao4*4nmjbbbJn*GPX7XXbYb@bYb6XxnbbbbbbbbbbbbbbbbbbbbbbbbbbbnaonbpxxnaoCDCK^XKKGKKKKKPQPPKKKGEKKPQZYZPPKZb2b2b2b2b2b6b#b5bZbXbWbWbWb5b$b3b3b3b5b!bXb6b2b6QX^b2bXb3b0b1b1b1$<$<#b$b5b8b$b3b8b3bZ,&b%))=_bY;;bZb6b6bXbZb7b@$,`%@b@bXb6b2b2b2b2b2b2b2bWb5%ZQXEB4jrxyrbbbbbb",
"bbbbbbbbbbbbbbbbbbbbbbbbbbbbbbbllmmm?lpj?nnnaoao4nnlbbbbskBBCBx::::xvpb4bvx:EZb28b0b5b!bYb0b5ZCpjbbbbbbbbbbbbbbbbbbbbbbbmnJx:xbBKXZZ^=)b8bZbXbZb7b@b8bXbWbXb!b0b5b7b6b48`&&)b4b7bWb0b@b5b5b6b6b6b3b$b5bWbWbWbXbXbXbXbWbXbWb8b$bYb!!YZ@)b^bYbXb6b$-b0b5;b7b5b5b$b1@@$-<b@b5;bWbXb7<_-<<<b0b3bXb6b6b2b2b2b6bWb@bY_-$#;bXbXbXbXb5b5b@bYb$.b$bWb6b2b2YQQQQPKDplbbbb",
"bbbbbbbbbbbbbbbbbbbbbbjlnnnn4nlrsvvvyu4syx:x:::xypaoaoBnKZZZ!ZPPPPKKGCs:pGPKKKZb#8bYb1b3b1!b0Kynbbbbbbbbbbbbbbbbbbbbjnmv:yKPXZY;b2b2b2b2bXb7b8b5b$b8.b5b0$$-<88<$=)`b^&0[b!))_!Y$b$#b@b$b$b$b5b5b5b5b5b0bY,b9b&b&b^YYQZ0Y,b1,b4b5b#bZbXbXbW.b8b$#<@-_==<b@b3b@#$$b1b5.bXb6b6b6b6b6b6bXbWbZb3b4,=__8-b4b@b1$b1b1bY-=-b1b@b@.;b7b4b4b6b10XErlbbbb",
"bbbbbbbbbbbbbbblmmmlnmpsxxxx:xuCEGGGGXZQXXPXPPPKKD:::xEX)b3bXb2b2b2bXbXb2bXb5ZQPXb%`b0)0)8,bYb0b5%9QfxrJ44nmjbbbbbjbbbjmnnJp:yGKXb6b2b2bWb7b3b0b5b7b3b@b0b1bYb@b$#<b1b1b1b@b@b3b3bWbZb3b5b@bYb4#b1b1<$<bYbYb$b8...b$b@#b@b@b1<8b!9b9b%0YZZZY!b!b!b!9,b5bZbZbZbW.b$b$#b1<b!b9b*b*777!)_$b1b3bXb6b2b2b2b2b2b6bXb3#b1,)`77,b0<b$b3b@b@b@b$b$b0b$b5...b3b78b%,XKDCbjjjbbb",
"nnnnn?????mnao4npyyvsyyBEKKKKPXQY=-b18b@bXbXbWbXbXb7b3b2b6bXbW&QXPPXXX=[9,%%=+b$bWbWbXbXb6b58%b&b&b*b!b!8bYb0b4@b$QWKDv::xvrbm4aoJqjnmrvyxyCKX_bZb6b1bY<bYb0b0<$<b1bY$,-<bYbYb@b5b$b5b@b4b1b$b3b3b5b5b3b$b5b5b@#bYbY<$,b!<b5b5b@##bY-$%b&0000&>[b(&`b*+7b9b*b*9<b@b3b$<<<<@-b!b*!b&b&b(b(b%7,#b5b7bZbXb6b6b2b2b6bXbZb5#$,b!__--bYb$b$b@b$b@b@b0b@b@#b1bYb4$8b!%b4ZKvxvsrrpbl44",
"xxyyyyyyyyyx:::CGKGEKXY!bXb2b2bXb2b2b6b5b3bWb7b3b5=```^`b&b&+b!)b!bXb2b6b6bWbWb4`,-b*)b9,8-$b4$+`b%b*,,,-<b0b8b5b8b8b8b8b2b2bZ^QPKKGCpyx:vnsxyCGKPXQb9b!>b^b%7b9b!,-,$<8b0bYb1b1b1b1$@$b1#b@b@b0b1b5b3b5b$b5b3b3b$b1b$b3b5b$#<_%b!b!_@<b1b0b1bY$-%+++%=-=b9)b&b%!`7b*b99b9%9b99%+7`b(b(b^&b%b%77b9b9%_$b1b1b0b5b5b$b1-_=9,$$<@$b1<---,--,@<<-)+!+-`b(Q/xDDCDC*bu::",
"KKKKKKKKKKGKPXXZb3bY)=8bWb7b8b$b5b$bY==_bY<<,)!b(79))b&!!7+b9)b&[b&&b^&>!9-b1$,b9b%>>0&b^&b)!)<)<b#b$bYbYb5b8b8b8b@b@b8bXb2b2b2bX=ZXXPPQZQXXQ0b^b*b*b(Y0>b^000b^b%^b*$$8bY$bY<b@bZb5<-bYb1b@b0bY<b0b@b@b5b5b3bW.b5b3.b5b$b1bYb4,,9b9b!9!b%!,<b5..b3b5b$b@bY-_,b!)+!7`b-b-b&b-b-b&b(b(b(b(b^b(b(b%!77b*b*b*b*!%<b1b@b$b$#@_9)b*b!b!=b*+!!+b*b*++7!7)=--b9b*9b!8$,00QXZ=&=[YQQPK",
"b6bZbZbZb#b#b#b#b#b#b8bZb5b5bWbXb#b#b#b#bY%b^b^[&b([b%b%b&b&b&`b*b*+%-8=%%+b9%-$@_b!b9!`+)b!$8b!9%b*b99``b(&[`0!8bZbZbZ,,b5b#b8b8b8b8b8b8b$b@bY@=ZZYb*b0b2b2b2b2b2b2b58=b^Z0>b%b&b&>Y0000&>00b9b5b1b0bYbYbYb0bY-$b1b4b!)b99b!-$$<<<<$$8,b!9b*b-b%b%b(b&b&b(b-7b-b-77!!b-b-b%b%b%b%b%[b%b%b%[b(b(b%[b(&b^b%b(b%b-!7b*b*b9b99b!b!_$<b1b1b1b1<<<$--bY<9`!b%b%b%b-77!!77b*9,$8_99&Y0>bYb8bZb2bXbZbXbZbXbXb6b2b2b2",
"b$b5b8b8b8b8b8b8b8b8b#b8b@bYbYb@b@<@,<[YYYYYYYY0Y00>&b&`&b&7)b9)7b*%%7b*b9%)))`b-b&b&b%b^b&))b9b9)!b&&>00>`!)=,@b0b#bZb#b8b8b8b#bZb0)+===bYb8b8=b)b^)`>&b^0Y0>>b^0Y0Y>!b!,b1b@-9b4-)!b!%,,%b*!b&b&b%b(b%b(b(b(b(b(b%b%b%b%b&b&b-b-b-b&b&b&b&b&b%b%b&b%b(b(b(b(b(b(b(b(b%&&b(b(b(b(b%b%b(b^b^b(b(b(b([b&!7b999b!b!,,,-@$--$-__%b9%b9+)b9b*`b(b^b&b9b9!b-b*b*+b*%%b9b!=!b%&>&b%>0b^7b#b8b8b8b8b5b5b$b$b@b@b0b@",
"b#b8b8b8b8b#b#b8b8b8b8b5b8b#b8b$b@<%0YYYYYYYYYYYY00000b^b%b%b&77b*77b9!`!!`b&``!b*++!b*b9b9!!+`b%b^>>>b^>YYY00>[)9b$b#b#b58)7)%b!bY),)YZZZY000YY00>b%b9b&b(b&[`!%b!-bYb@b$b1bY,7!&[b%b(b^b^b^>>>>>>>>>>0>>>b^&b(b%b(b%b%b(b(b(b(b([[b(b%b%b(&&b^b^b(b(b^&b^b(b(b(b%b%b%b-7b*b*b9b99999b999%%9b9b9b*7`b&b&b&b%`b&b%`!`%,$@b!b*9b!b4b4-,b!=_b!%+)+`b&[b^b^!&YY0798b5b#b#bZbZbZbZb#b#",
"bYb$b@b$b@b0b0b5b5b8b#b#b#<^YYY00>0000000>000>>>>[b&b&7)9,b!%%!!b*)`+`b&``b99%%%%9b!9b*7b%>YYYYYYYY0>b(&0YY>b%>YY0[!b*b!!>0000YYYY0b^b(b&`>0>b^b^b^b&b^&&b^b^b%!`>>00000000000000>>>>>>b^b(b(b(b%b%b%b%b%b%&b&b&b(b&b%b%b(b^b(b^&b^b(b(b(b%b&b&b-b-`!!!777b*!7!77`b-b-b&b-b-b%b%b%b%b(b([b%b^b(b(&>>&b%!b9)b9b99%99b9b9%%9%===b!b!_b!b!=%+b&&>b^>000YY0>!7),,<",
"`YZY0!b%b%`b%b)b*,=b%^^`b%b)b%b^YYY0b^b(>>b(b(b&b&`b%b^b&[`b*+b%[&b^&b&b&b&b^00b^`+77%b!,$b!89b*`b^0Y0>&[b%b&[>00>b^000b^&&`7b9b!=b!_-b4<b4<b4<$--$-b!)!!`99b!,b9b*)b*b-b(&>0000>>>>b^b(b^b^&b(b^&b(b(b%b&b%b(b^&b(b(b(b(b%b(b(b^b^b%b&b&b&b-b(b(b^b^b^b^b(b(b%b(b&!777777!b-b-b-!b-!!b-b-b%b%b%b%b%b-b%b%b%b%b(b(b(b(b(b(b(b(>>b(b^b(b&b&b%b&b-7b99b!_=__----@$<$@@@<<<--9`00YZYY>b(0b^&b^",
"%b9_,b1b$b0b4-b!!&b&b90&`!b^00>b(078b4b!%)-,=+!++)+=%b!b9)!`!b*`7b9b!b4b0b3.bZbWb#b5b@b@b@b1b4,b!9b!b!bYb!b!%```0>b^b^b^b%7!b&b%b(b%b&+)=_,,$bYb@b0bYb$b@bYb1b1<,888@$$-__$$-,b4<b4--8-==_%b9)b*!``!!b-`b-b-b-b%b%b&b-`b-b-`b&b-b&``b&b-`!!b-b-7777!7!b-b-!77b*b*b99%999b!=b!b!b!b!==b!=b!====99%%999%%b9++)b*b*b*b*7b*+b*%%b9%_@<<bYb1b1b1b1b1bYb1b1<<<<bY<--,_b!b!-,=)b*b9",
"b5.b5b5b5b$b5b$b5b5;;.b$b5b3b5b@bY#b1bYb@b1#b@b1<bYbY8-b4b1b@b@#b0b@b@b1b1#$$$,,b!bY#b0b5b3b1b1b$b0b0b$b5b5b0b1b1b1b1b1b0b1b1b1b1b1<<bYbYbYbYbYb1bYbYb1bYbYb1bYbYbYbYb1bY#b0b0b$b$b@b@b$b@b3b3b5b$b5b5b5b$b5b8b3b3b3b3b3b3b3b3;bWbWbXbXbWbWbWbZbW;.b8b5b5b$##b1bY<bY<<b4$-8$<<<bYbYbYb1b1b0<b4b4<bYbYbYbYbY888b4<bYb4b4bY<bYbY<b1####b@b@#b@b@#b@b@#b@b@###b@#######b1b1b1b1b1b1<$$-b!b!b!9b999b!_-$b4bYbYbYb1b@b@#b@b@b@b@b$b$b$b$b@b$b@b@b1#b$b$b5b$b$",
"...;..;;.;..;;....;bWbW;;.;;;;bWbWb7b7;;;bW;;;;;b7;.b7;b3b3b5b3.b3b3b3b5b@b$b5b5b5b3b7b3b5b5b$b0b0b5b5b7bZbWbWb7bZbZb7b7bXbXbWb7b3b7b7b7;bWbXbXbWbWbWb7b7bWbZbWbWbWbWbWbWbWbWbWbXbXbXbXbXbXbXbWbXbXbXbWb3;bXbXbXbXbXbWbWbWbWbWbW;bWbWbXbXbWbW;;;;;.;bWbWb7;bWb7b7b7b7.b3b7b7b8b3b3b3...b7b7b3.b3b3.b3b3......b3..................................;;......b8b8b3b3b3b5b5b3....................;..."
};
